;FLAVOR:UltiGCode
;TIME:5558
;MATERIAL:12674
;MATERIAL2:0
;NOZZLE_DIAMETER:0.4
;Generated with Cura_SteamEngine 3.0.3
M82 ; absolute extrusion mode

;LAYER_COUNT:150
;LAYER:0
M107
G0 F3600 X58.124 Y85.386 Z0.3
;TYPE:SKIRT
G1 F1800 X58.554 Y85.12 E0.06067
G1 X59.021 Y84.926 E0.12136
G1 X59.512 Y84.808 E0.18196
G1 X60.016 Y84.768 E0.24263
G1 X63.494 Y84.77 E0.65999
G1 X63.998 Y84.81 E0.72066
G1 X64.482 Y84.927 E0.78041
G1 X68.157 Y86.122 E1.24414
G1 X73.488 Y87.587 E1.90757
G1 X76.144 Y88.196 E2.23456
G1 X81.512 Y89.19 E2.88968
G1 X86.94 Y89.881 E3.54629
G1 X92.396 Y90.264 E4.20262
G1 X100.268 Y90.349 E5.14732
G1 X105.769 Y90.194 E5.8077
G1 X111.235 Y89.729 E6.46599
G1 X116.641 Y88.958 E7.12127
G1 X122.046 Y87.875 E7.78277
G1 X124.64 Y87.239 E8.10327
G1 X127.304 Y86.507 E8.43479
G1 X133.26 Y84.57 E9.18636
G1 X133.751 Y84.452 E9.24696
G1 X134.255 Y84.413 E9.30762
G1 X134.759 Y84.454 E9.3683
G1 X135.145 Y84.541 E9.41578
G1 X140.766 Y86.18 E10.11839
G1 X146.15 Y87.417 E10.7813
G1 X148.787 Y87.905 E11.10312
G1 X154.207 Y88.675 E11.76005
G1 X159.712 Y89.141 E12.42301
G1 X162.92 Y89.271 E12.80829
G1 X163.422 Y89.331 E12.86895
G1 X163.908 Y89.47 E12.92961
G1 X164.366 Y89.683 E12.99023
G1 X164.785 Y89.966 E13.0509
G1 X165.154 Y90.312 E13.1116
G1 X165.465 Y90.711 E13.17231
G1 X165.708 Y91.154 E13.23294
G1 X165.878 Y91.63 E13.29359
G1 X165.972 Y92.127 E13.35429
G1 X165.99 Y92.47 E13.39551
G1 X165.989 Y93.947 E13.57275
G1 X165.946 Y94.468 E13.63548
G1 X165.603 Y96.538 E13.88727
G1 X164.909 Y101.985 E14.54619
G1 X164.526 Y107.443 E15.20276
G1 X164.451 Y112.932 E15.8615
G1 X164.686 Y118.396 E16.51779
G1 X165.231 Y123.849 E17.17541
G1 X165.953 Y128.573 E17.74887
G1 X165.99 Y129.055 E17.80688
G1 X165.991 Y130.531 E17.984
G1 X165.951 Y131.035 E18.04467
G1 X165.833 Y131.526 E18.10527
G1 X165.639 Y131.993 E18.16595
G1 X165.373 Y132.423 E18.22663
G1 X165.043 Y132.806 E18.2873
G1 X164.657 Y133.133 E18.348
G1 X164.224 Y133.394 E18.40867
G1 X163.756 Y133.584 E18.46928
G1 X163.263 Y133.698 E18.53
G1 X162.918 Y133.73 E18.57158
G1 X159.204 Y133.878 E19.01762
G1 X153.738 Y134.348 E19.67596
G1 X148.306 Y135.127 E20.33447
G1 X142.909 Y136.216 E20.99516
G1 X140.312 Y136.855 E21.31609
G1 X136.734 Y137.875 E21.76256
G1 X135.362 Y138.278 E21.93415
G1 X134.867 Y138.382 E21.99485
G1 X134.362 Y138.407 E22.05553
G1 X133.849 Y138.349 E22.11748
G1 X127.69 Y137.151 E22.87041
G1 X122.266 Y136.427 E23.52706
G1 X116.794 Y136.011 E24.1856
G1 X110.184 Y135.889 E24.97893
G1 X109.701 Y135.844 E25.03714
G1 X106.711 Y135.33 E25.40121
G1 X101.267 Y134.635 E26.05979
G1 X95.812 Y134.25 E26.71602
G1 X90.324 Y134.173 E27.37464
G1 X84.858 Y134.407 E28.03116
G1 X79.414 Y134.949 E28.68767
G1 X73.977 Y135.803 E29.34811
G1 X71.341 Y136.332 E29.67074
G1 X68.683 Y136.944 E29.99804
G1 X64.318 Y138.121 E30.54055
G1 X63.821 Y138.213 E30.6012
G1 X63.442 Y138.231 E30.64674
G1 X59.831 Y138.182 E31.0801
G1 X59.327 Y138.135 E31.14084
G1 X58.837 Y138.009 E31.20155
G1 X58.374 Y137.808 E31.26212
G1 X57.947 Y137.537 E31.32281
G1 X57.633 Y137.266 E31.37258
G1 X57.37 Y137.008 E31.41679
G1 X57.186 Y136.812 E31.44905
G1 X56.839 Y136.409 E31.51287
G1 X56.54 Y136.001 E31.57357
G1 X56.31 Y135.551 E31.63421
G1 X56.153 Y135.07 E31.69493
G1 X56.074 Y134.571 E31.75556
G1 X56.064 Y134.312 E31.78666
G1 X56.067 Y133.19 E31.9213
G1 X56.082 Y132.892 E31.95711
G1 X56.558 Y127.955 E32.55229
G1 X56.798 Y122.452 E33.21328
G1 X56.807 Y103.568 E35.47936
G1 X56.728 Y97.997 E36.14795
G1 X56.337 Y92.47 E36.81285
G1 X56.071 Y89.742 E37.14176
G1 X56.056 Y89.387 E37.1844
G1 X56.066 Y88.678 E37.26948
G1 X56.113 Y88.174 E37.33023
G1 X56.239 Y87.685 E37.39082
G1 X56.44 Y87.221 E37.4515
G1 X56.712 Y86.795 E37.51215
G1 X56.993 Y86.471 E37.56362
G1 X57.741 Y85.716 E37.69116
G1 X58.124 Y85.386 E37.75182
G0 F3600 X60.094 Y88.157
;TYPE:SUPPORT
G1 F1800 X63.396 Y88.156 E38.14806
G1 X63.64 Y88.404 E38.18981
G1 X59.837 Y88.415 E38.64617
G1 X60.094 Y88.157 E38.68987
G10
G0 F3600 X63.357 Y90.845
G0 X63.861 Y91.349
G0 X64.1 Y93.511
G11
G1 F1800 X64.339 Y93.75 E38.73043
G1 X127.731 Y93.75 E46.33747
G1 X128.13 Y93.351 E46.40518
G1 X128.132 Y89.91 E46.8181
G1 X130.3 Y90.061 E47.0789
G1 X130.3 Y97.777 E48.00482
G1 X129.869 Y99.246 E48.18853
G1 X129.795 Y99.989 E48.27813
G1 X129.965 Y101.882 E48.5062
G1 X130.3 Y102.188 E48.56065
G1 X130.3 Y121.115 E50.83189
G1 X130.083 Y121.527 E50.88777
G1 X129.867 Y122.242 E50.9774
G1 X129.796 Y122.976 E51.06589
G1 X129.946 Y124.872 E51.29412
G1 X130.3 Y125.199 E51.35195
G1 X130.3 Y133.032 E52.29191
G1 X129.868 Y132.835 E52.34888
G1 X129.519 Y132.696 E52.39396
G1 X127.945 Y131.983 E52.60132
G1 X127.945 Y129.649 E52.8814
G1 X127.546 Y129.25 E52.94911
G1 X118.599 Y129.25 E54.02275
G1 X118.2 Y129.649 E54.09046
G1 X118.2 Y132.384 E54.41866
G1 X118.084 Y132.5 E54.43835
G1 X110.316 Y132.5 E55.37051
G1 X110.2 Y132.384 E55.39019
G1 X110.2 Y129.649 E55.71839
G1 X109.801 Y129.25 E55.78611
G1 X64.1 Y129.25 E61.27023
G1 X64.1 Y119.999 E62.38035
G1 X63.701 Y119.6 E62.44806
G1 X60.2 Y119.6 E62.86818
G1 X60.202 Y103.4 E64.81218
G1 X63.701 Y103.4 E65.23206
G1 X64.1 Y103.001 E65.29977
G1 X64.1 Y93.511 E66.43857
G0 F3600 X72.858 Y97.315
G1 F1800 X72.279 Y98.104 E66.55601
G1 X71.526 Y100.002 E66.80104
G1 X72.254 Y101.83 E67.03716
G1 X72.641 Y102.507 E67.13073
G1 X73.601 Y103.293 E67.27962
G1 X75.418 Y104.162 E67.52131
G1 X77.35 Y103.544 E67.76473
G1 X78.193 Y103.013 E67.88428
G1 X78.863 Y102.293 E68.0023
G1 X79.334 Y101.438 E68.11944
G1 X79.701 Y100.007 E68.29672
G1 X79.211 Y98.075 E68.5359
G1 X77.985 Y96.765 E68.7512
G1 X77.985 Y96.35 E68.801
G1 X77.753 Y95.855 E68.8666
G1 X77.22 Y95.765 E68.93147
G1 X74.496 Y96.279 E69.26412
G1 X73.61 Y96.698 E69.38173
G1 X72.858 Y97.315 E69.49845
G10
G0 F3600 X72.138 Y99.146
G0 X72.037 Y100.054
G0 X73.939 Y119.397
G11
G1 F1800 X73.252 Y119.993 E69.60759
G1 X72.851 Y120.327 E69.67022
G1 X72.279 Y121.103 E69.7859
G1 X71.913 Y122.027 E69.90516
G1 X71.792 Y122.989 E70.02151
G1 X71.963 Y124.447 E70.19767
G1 X72.839 Y125.666 E70.37781
G1 X74.417 Y126.965 E70.62307
G1 X76.431 Y126.841 E70.86521
G1 X77.35 Y126.543 E70.98114
G1 X78.183 Y126.016 E71.09943
G1 X78.863 Y125.302 E71.21775
G1 X79.332 Y124.437 E71.33583
G1 X79.576 Y123.48 E71.45434
G1 X79.576 Y122.503 E71.57158
G1 X79.324 Y121.515 E71.69393
G1 X79.166 Y121.258 E71.73014
G1 X78.861 Y120.705 E71.80592
G1 X78.187 Y119.984 E71.92436
G1 X77.706 Y119.682 E71.99251
G1 X77.405 Y119.467 E72.0369
G1 X76.505 Y119.187 E72.15001
G1 X75.917 Y119.013 E72.22359
G1 X74.768 Y119.231 E72.36393
G1 X73.939 Y119.397 E72.46538
G0 F3600 X74.648 Y119.097
G1 F1800 X74.648 Y103.972 E74.28038
G0 F3600 X74.654 Y103.974
G1 F1800 X60.361 Y103.974 E75.99554
G0 F3600 X61.318 Y103.56
G1 F1800 X61.318 Y119.44 E77.90114
G0 F3600 X60.36 Y117.304
G1 F1800 X130.14 Y117.304 E86.27474
G0 F3600 X130.14 Y114.638
G1 F1800 X60.36 Y114.638 E94.64834
G0 F3600 X60.36 Y111.972
G1 F1800 X130.14 Y111.972 E103.02194
G0 F3600 X130.14 Y109.306
G1 F1800 X60.361 Y109.306 E111.39542
G0 F3600 X60.361 Y106.64
G1 F1800 X130.14 Y106.64 E119.7689
G0 F3600 X130.14 Y103.974
G1 F1800 X76.533 Y103.974 E126.20174
G0 F3600 X77.314 Y103.724
G1 F1800 X77.314 Y119.271 E128.06738
G0 F3600 X78.391 Y119.97
G1 F1800 X130.139 Y119.97 E134.27714
G0 F3600 X129.666 Y122.636
G1 F1800 X79.735 Y122.636 E140.26886
G0 F3600 X79.045 Y125.302
G1 F1800 X130.139 Y125.302 E146.40014
G0 F3600 X130.139 Y127.968
G1 F1800 X64.259 Y127.968 E154.30574
G0 F3600 X66.65 Y129.09
G1 F1800 X66.65 Y93.91 E158.52734
G0 F3600 X69.316 Y93.91
G1 F1800 X69.316 Y129.09 E162.74894
G0 F3600 X71.982 Y129.09
G1 F1800 X71.982 Y124.75 E163.26974
G0 F3600 X72.379 Y125.302
G1 F1800 X64.259 Y125.302 E164.24414
G0 F3600 X64.259 Y122.636
G1 F1800 X71.675 Y122.636 E165.13406
G0 F3600 X71.982 Y121.42
G1 F1800 X71.982 Y101.581 E167.51474
G0 F3600 X71.874 Y101.308
G1 F1800 X64.259 Y101.308 E168.42854
G0 F3600 X63.984 Y103.344
G1 F1800 X63.984 Y119.656 E170.38598
G0 F3600 X64.259 Y119.97
G1 F1800 X73.027 Y119.97 E171.43814
G10
G0 F3600 X72.138 Y122.146
G0 X72.037 Y123.054
G0 X72.164 Y123.96
G0 X72.516 Y124.811
G0 X73.068 Y125.549
G0 X74.648 Y127.11
G11
G1 F1800 X74.648 Y129.09 E171.67574
G0 F3600 X77.314 Y129.09
G1 F1800 X77.314 Y126.723 E171.95978
G0 F3600 X79.98 Y129.09
G1 F1800 X79.98 Y93.91 E176.18138
G0 F3600 X77.314 Y93.91
G1 F1800 X77.314 Y95.618 E176.38634
G0 F3600 X77.987 Y95.976
G1 F1800 X130.14 Y95.976 E182.6447
G0 F3600 X130.14 Y93.31
G1 F1800 X128.291 Y93.31 E182.86658
G0 F3600 X127.968 Y93.74
G1 F1800 X127.968 Y129.445 E187.15118
G0 F3600 X128.104 Y130.634
G1 F1800 X130.139 Y130.634 E187.39538
G0 F3600 X125.302 Y129.09
G1 F1800 X125.302 Y93.91 E191.61698
G0 F3600 X122.636 Y93.91
G1 F1800 X122.636 Y129.09 E195.83858
G0 F3600 X119.97 Y129.09
G1 F1800 X119.97 Y93.91 E200.06018
G0 F3600 X117.304 Y93.91
G1 F1800 X117.304 Y132.34 E204.67178
G0 F3600 X118.039 Y130.634
G1 F1800 X110.359 Y130.634 E205.59338
G0 F3600 X109.306 Y129.09
G1 F1800 X109.306 Y93.91 E209.81498
G0 F3600 X106.64 Y93.91
G1 F1800 X106.64 Y129.09 E214.03658
G0 F3600 X103.974 Y129.09
G1 F1800 X103.974 Y93.91 E218.25818
G0 F3600 X101.308 Y93.91
G1 F1800 X101.308 Y129.09 E222.47978
G0 F3600 X98.642 Y129.09
G1 F1800 X98.642 Y93.91 E226.70138
G0 F3600 X95.976 Y93.91
G1 F1800 X95.976 Y129.09 E230.92298
G0 F3600 X93.31 Y129.09
G1 F1800 X93.31 Y93.91 E235.14458
G0 F3600 X90.644 Y93.91
G1 F1800 X90.644 Y129.09 E239.36618
G0 F3600 X87.978 Y129.09
G1 F1800 X87.978 Y93.91 E243.58778
G0 F3600 X85.312 Y93.91
G1 F1800 X85.312 Y129.09 E247.80938
G0 F3600 X82.646 Y129.09
G1 F1800 X82.646 Y93.91 E252.03098
G0 F3600 X79.519 Y98.642
G1 F1800 X129.879 Y98.642 E258.07418
G0 F3600 X129.754 Y101.308
G1 F1800 X79.532 Y101.308 E264.10082
G10
G0 F3600 X79.327 Y99.49
G0 X79.079 Y98.589
G0 X78.633 Y97.807
G0 X77.994 Y97.144
G0 X77.206 Y96.661
G0 X75.236 Y95.976
G11
G1 F1800 X64.259 Y95.976 E265.41806
G0 F3600 X64.259 Y98.642
G1 F1800 X71.893 Y98.642 E266.33414
G0 F3600 X71.982 Y98.42
G1 F1800 X71.982 Y93.91 E266.87534
G0 F3600 X74.648 Y93.91
G1 F1800 X74.648 Y96.088 E267.1367
G0 F3600 X111.972 Y93.91
G1 F1800 X111.972 Y132.34 E271.7483
G0 F3600 X114.638 Y132.34
G1 F1800 X114.638 Y93.91 E276.3599
G0 F3600 X128.292 Y90.644
G1 F1800 X130.14 Y90.644 E276.58166
G10
G0 F3600 X77.304 Y126.294
G0 X63.649 Y134.59
G11
G1 F1800 X63.396 Y134.843 E276.6246
G1 X60.008 Y134.843 E277.03116
G1 X59.757 Y134.59 E277.07393
G1 X63.649 Y134.59 E277.54097
G0 F3600 X133.989 Y134.196
G1 F1800 X134.701 Y134.196 E277.62641
G1 X135.1 Y133.797 E277.69412
G1 X135.1 Y132.2 E277.88576
G1 X138.064 Y132.2 E278.24144
G1 X138.309 Y133.418 E278.39053
G1 X134.533 Y134.973 E278.88056
G1 X133.989 Y134.196 E278.99439
G0 F3600 X135.26 Y133.3
G1 F1800 X138.123 Y133.3 E279.33795
G0 F3600 X135.966 Y134.21
G1 F1800 X135.966 Y132.36 E279.55995
G10
G0 F3600 X147.357 Y131.961
G0 X162.957 Y131.203
G0 X163.461 Y130.699
G0 X163.461 Y128.901
G0 X162.957 Y128.397
G0 X147.357 Y127.639
G0 X135.1 Y127.4
G11
G1 F1800 X135.1 Y126.625 E279.65295
G1 X135.303 Y126.564 E279.67838
G1 X136.15 Y126.042 E279.79777
G1 X136.644 Y125.528 E279.88332
G1 X138.478 Y126.316 E280.12286
G1 X138.478 Y127.4 E280.25294
G1 X135.1 Y127.4 E280.6583
G0 F3600 X135.966 Y127.24
G1 F1800 X135.966 Y126.343 E280.76594
G10
G0 F3600 X137.12 Y124.308
G0 X137.34 Y123.41
G0 X137.327 Y99.48
G0 X137.082 Y98.589
G0 X136.66 Y97.487
G11
G1 F1800 X136.153 Y96.958 E280.85386
G1 X135.304 Y96.434 E280.97359
G1 X135.1 Y96.373 E280.99914
G1 X135.1 Y95.6 E281.0919
G1 X138.478 Y95.6 E281.49726
G1 X138.478 Y96.733 E281.63322
G1 X136.66 Y97.487 E281.8694
G0 F3600 X135.966 Y96.654
G1 F1800 X135.966 Y95.76 E281.97668
G0 F3600 X135.26 Y95.976
G1 F1800 X138.318 Y95.976 E282.34364
G10
G0 F3600 X162.957 Y94.603
G0 X163.461 Y94.099
G0 X163.461 Y92.301
G0 X162.957 Y91.797
G0 X147.357 Y91.039
G0 X138.145 Y90.8
G11
G1 F1800 X135.1 Y90.8 E282.70904
G1 X135.1 Y88.815 E282.94724
G1 X134.701 Y88.416 E283.01495
G1 X134.449 Y88.416 E283.04519
G1 X134.449 Y87.901 E283.10699
G1 X138.399 Y89.531 E283.61976
G1 X138.145 Y90.8 E283.77506
G0 F3600 X135.966 Y90.64
G1 F1800 X135.966 Y88.701 E284.00774
G10
G0 F3600 X63.865 Y92.12
G0 X62.586 Y92.12
G0 X62.53 Y92.176
G0 X62.6 Y92.106
;TYPE:WALL-INNER
G11
G1 F1800 X62.6 Y101.9 E285.18302
G1 X60.8 Y101.9 E285.39902
G1 X60.8 Y92.106 E286.5743
G1 X62.6 Y92.106 E286.7903
G0 F3600 X62.53 Y92.176
G0 X62.53 Y101.83
G0 X63 Y102.3
;TYPE:WALL-OUTER
G1 F1800 X60.4 Y102.3 E287.1023
G1 X60.4 Y91.706 E288.37358
G1 X63 Y91.706 E288.68558
G1 X63 Y102.3 E289.95686
G0 F3600 X62.8 Y102.3
G0 X62.53 Y101.83
G0 X62.2 Y101.5
;TYPE:WALL-INNER
G1 F1800 X61.2 Y101.5 E290.07686
G1 X61.2 Y92.506 E291.15614
G1 X62.2 Y92.506 E291.27614
G1 X62.2 Y101.5 E292.35542
G0 F3600 X61.721 Y101.319
;TYPE:SKIN
G1 F1800 X61.38 Y100.978 E292.41329
G0 F3600 X61.38 Y100.412
G1 F1800 X62.019 Y101.051 E292.52173
G1 X62.089 Y101.121
G0 F3600 X62.019 Y100.486
G1 F1800 X61.38 Y99.847 E292.63017
G1 X61.31 Y99.777
G0 F3600 X61.38 Y99.281
G1 F1800 X62.019 Y99.92 E292.73862
G1 X62.089 Y99.99
G0 F3600 X62.019 Y99.354
G1 F1800 X61.38 Y98.715 E292.84706
G1 X61.31 Y98.645
G0 F3600 X61.38 Y98.149
G1 F1800 X62.019 Y98.789 E292.95558
G1 X62.089 Y98.859
G0 F3600 X62.019 Y98.223
G1 F1800 X61.38 Y97.584 E293.06403
G1 X61.31 Y97.514
G0 F3600 X61.38 Y97.018
G1 F1800 X62.019 Y97.657 E293.17247
G1 X62.089 Y97.727
G0 F3600 X62.019 Y97.092
G1 F1800 X61.38 Y96.452 E293.281
G1 X61.31 Y96.382
G0 F3600 X61.38 Y95.887
G1 F1800 X62.019 Y96.526 E293.38944
G1 X62.089 Y96.596
G0 F3600 X62.019 Y95.96
G1 F1800 X61.38 Y95.321 E293.49788
G1 X61.31 Y95.251
G0 F3600 X61.38 Y94.755
G1 F1800 X62.019 Y95.395 E293.60641
G1 X62.089 Y95.465
G0 F3600 X62.019 Y94.829
G1 F1800 X61.38 Y94.19 E293.71485
G1 X61.31 Y94.12
G0 F3600 X61.38 Y93.624
G1 F1800 X62.019 Y94.263 E293.82329
G1 X62.089 Y94.333
G0 F3600 X62.019 Y93.698
G1 F1800 X61.38 Y93.058 E293.93182
G1 X61.31 Y92.988
G0 F3600 X61.572 Y92.685
G1 F1800 X62.019 Y93.132 E294.00767
G10
G0 F3600 X62.58 Y98.894
G0 X63.865 Y98.894
G0 X72.125 Y99.249
G0 X73.399 Y99.41
G0 X73.688 Y98.894
G0 X73.601 Y98.846
;TYPE:WALL-INNER
G11
G1 F1800 X73.613 Y98.829 E294.01017
G1 X73.923 Y98.403 E294.07339
G1 X73.956 Y98.357 E294.08019
G1 X73.969 Y98.346 E294.08223
G1 X74.375 Y98.012 E294.14532
G1 X74.416 Y97.978 E294.15171
G1 X74.435 Y97.97 E294.15418
G1 X74.912 Y97.745 E294.21747
G1 X74.961 Y97.722 E294.22397
G1 X74.978 Y97.719 E294.22604
G1 X75.512 Y97.616 E294.2913
G1 X75.548 Y97.609 E294.2957
G1 X75.584 Y97.611 E294.30003
G1 X76.114 Y97.645 E294.36376
G1 X76.151 Y97.648 E294.36821
G1 X76.183 Y97.658 E294.37224
G1 X76.685 Y97.821 E294.43557
G1 X76.718 Y97.832 E294.43975
G1 X76.75 Y97.852 E294.44428
G1 X77.194 Y98.133 E294.50733
G1 X77.225 Y98.153 E294.51176
G1 X77.25 Y98.179 E294.51609
G1 X77.612 Y98.565 E294.57959
G1 X77.641 Y98.596 E294.58468
G1 X77.655 Y98.622 E294.58823
G1 X77.911 Y99.088 E294.65203
G1 X77.925 Y99.113 E294.65547
G1 X77.935 Y99.154 E294.66053
G1 X78.066 Y99.665 E294.72383
G1 X78.076 Y99.703 E294.72855
G1 X78.076 Y99.737 E294.73263
G1 X78.076 Y100.263 E294.79575
G1 X78.076 Y100.297 E294.79983
G1 X78.067 Y100.333 E294.80428
G1 X77.936 Y100.844 E294.86758
G1 X77.925 Y100.887 E294.87291
G1 X77.912 Y100.912 E294.87629
G1 X77.655 Y101.378 E294.94015
G1 X77.641 Y101.404 E294.9437
G1 X77.613 Y101.434 E294.94862
G1 X77.251 Y101.819 E295.01204
G1 X77.225 Y101.847 E295.01662
G1 X77.195 Y101.866 E295.02088
G1 X76.751 Y102.147 E295.08394
G1 X76.718 Y102.168 E295.08863
G1 X76.687 Y102.178 E295.09254
G1 X76.185 Y102.341 E295.15587
G1 X76.151 Y102.352 E295.16016
