;FLAVOR:UltiGCode
;TIME:4925
;MATERIAL:11519
;MATERIAL2:0

;Layer count: 199
;LAYER:0
M107
G0 F9000 X60.451 Y89.242 Z0.300
;TYPE:SKIRT
G1 F1800 X66.338 Y89.240 E0.88305
G1 X69.951 Y89.250 E1.42500
G1 X69.951 Y90.710 E1.64400
G1 X132.450 Y90.710 E11.01885
G1 X132.450 Y89.239 E11.23950
G1 X138.220 Y89.237 E12.10500
G1 X141.950 Y89.245 E12.66450
G1 X141.950 Y89.451 E12.69540
G1 X153.950 Y89.451 E14.49540
G1 X153.950 Y90.169 E14.60310
G1 X169.549 Y90.172 E16.94295
G1 X169.549 Y98.226 E18.15105
G1 X153.950 Y98.234 E20.49090
G1 X153.950 Y98.951 E20.59845
G1 X143.087 Y98.951 E22.22790
G1 X143.262 Y99.369 E22.29588
G1 X143.413 Y100.504 E22.46763
G1 X143.479 Y100.995 E22.54194
G1 X143.263 Y102.626 E22.78873
G1 X142.638 Y104.138 E23.03414
G1 X141.950 Y105.035 E23.20371
G1 X141.950 Y119.966 E25.44336
G1 X142.341 Y120.476 E25.53975
G1 X142.638 Y120.863 E25.61293
G1 X143.078 Y121.927 E25.78564
G1 X143.262 Y122.368 E25.85731
G1 X143.413 Y123.504 E26.02921
G1 X143.479 Y123.995 E26.10352
G1 X143.263 Y125.624 E26.35001
G1 X143.088 Y126.049 E26.41896
G1 X153.950 Y126.049 E28.04826
G1 X153.950 Y126.766 E28.15581
G1 X169.549 Y126.772 E30.49566
G1 X169.549 Y134.826 E31.70376
G1 X153.950 Y134.832 E34.04361
G1 X153.950 Y135.549 E34.15116
G1 X141.950 Y135.549 E35.95116
G1 X141.950 Y135.761 E35.98296
G1 X132.450 Y135.764 E37.40796
G1 X132.450 Y134.010 E37.67106
G1 X69.951 Y134.010 E47.04591
G1 X69.951 Y135.758 E47.30811
G1 X60.451 Y135.761 E48.73311
G1 X60.451 Y124.750 E50.38476
G1 X59.951 Y124.750 E50.45976
G1 X59.951 Y100.250 E54.13476
G1 X60.451 Y100.250 E54.20976
G1 X60.451 Y89.242 E55.86096
G10
G0 F9000 X64.451 Y93.241
;TYPE:WALL-INNER
G11
G1 F1800 X65.951 Y93.240 E56.08596
G1 X65.951 Y102.750 E57.51246
G1 X64.451 Y102.750 E57.73746
G1 X64.451 Y93.241 E59.16381
G0 F9000 X63.951 Y92.741
;TYPE:WALL-OUTER
G1 F1800 X66.451 Y92.741 E59.53881
G1 X66.451 Y103.250 E61.11516
G1 X63.951 Y103.250 E61.49016
G1 X63.951 Y92.741 E63.06651
G0 F9000 X64.777 Y93.415
;TYPE:SKIN
G1 F1800 X65.776 Y94.414 E63.27843
G0 F9000 X65.776 Y93.707
G1 F1800 X65.484 Y93.415 E63.34037
G0 F9000 X64.626 Y93.970
G1 F1800 X65.776 Y95.121 E63.58443
G0 F9000 X65.776 Y95.828
G1 F1800 X64.626 Y94.678 E63.82838
G0 F9000 X64.626 Y95.385
G1 F1800 X65.776 Y96.535 E64.07233
G0 F9000 X65.776 Y97.242
G1 F1800 X64.626 Y96.092 E64.31628
G0 F9000 X64.626 Y96.799
G1 F1800 X65.776 Y97.949 E64.56023
G0 F9000 X65.776 Y98.656
G1 F1800 X64.626 Y97.506 E64.80419
G0 F9000 X64.626 Y98.213
G1 F1800 X65.776 Y99.364 E65.04824
G0 F9000 X65.776 Y100.071
G1 F1800 X64.626 Y98.920 E65.29230
G0 F9000 X64.626 Y99.627
G1 F1800 X65.776 Y100.778 E65.53636
G0 F9000 X65.776 Y101.485
G1 F1800 X64.626 Y100.334 E65.78042
G0 F9000 X64.626 Y101.042
G1 F1800 X65.776 Y102.192 E66.02437
G0 F9000 X65.450 Y102.573
G1 F1800 X64.626 Y101.749 E66.19917
G0 F9000 X64.626 Y102.456
G1 F1800 X64.743 Y102.573 E66.22399
G10
G0 F9000 X76.453 Y101.000
;TYPE:WALL-OUTER
G11
G1 F1800 X76.539 Y100.315 E66.32754
G1 X76.792 Y99.677 E66.43049
G1 X77.197 Y99.120 E66.53379
G1 X77.728 Y98.681 E66.63714
G1 X78.350 Y98.387 E66.74034
G1 X79.028 Y98.258 E66.84386
G1 X79.699 Y98.300 E66.94471
G1 X79.712 Y98.301 E66.94666
G1 X80.371 Y98.514 E67.05055
G1 X80.953 Y98.884 E67.15400
G1 X81.424 Y99.385 E67.25714
G1 X81.756 Y99.988 E67.36040
G1 X81.927 Y100.656 E67.46383
G1 X81.927 Y101.345 E67.56718
G1 X81.756 Y102.013 E67.67061
G1 X81.424 Y102.616 E67.77386
G1 X80.953 Y103.117 E67.87701
G1 X80.371 Y103.487 E67.98045
G1 X79.717 Y103.699 E68.08358
G1 X79.042 Y103.742 E68.18504
G1 X79.028 Y103.743 E68.18714
G1 X78.350 Y103.614 E68.29067
G1 X77.769 Y103.340 E68.38702
G1 X77.197 Y102.880 E68.49712
G1 X76.802 Y102.337 E68.59784
G1 X76.792 Y102.323 E68.60042
G1 X76.539 Y101.686 E68.70324
G1 X76.453 Y101.000 E68.80694
G0 F9000 X77.449 Y101.000
G1 F1800 X77.506 Y101.444 E68.87409
G1 X77.665 Y101.845 E68.93879
G1 X77.924 Y102.200 E69.00471
G1 X78.268 Y102.483 E69.07153
G1 X78.659 Y102.667 E69.13635
G1 X79.090 Y102.750 E69.20218
G1 X79.529 Y102.721 E69.26818
G1 X79.946 Y102.586 E69.33392
G1 X80.318 Y102.350 E69.40001
G1 X80.618 Y102.030 E69.46580
G1 X80.829 Y101.646 E69.53152
G1 X80.939 Y101.220 E69.59752
G1 X80.939 Y100.781 E69.66337
G1 X80.829 Y100.355 E69.72936
G1 X80.618 Y99.971 E69.79509
G1 X80.318 Y99.651 E69.86088
G1 X79.946 Y99.415 E69.92696
G1 X79.529 Y99.279 E69.99276
G1 X79.083 Y99.253 E70.05977
G1 X78.658 Y99.335 E70.12470
G1 X78.257 Y99.526 E70.19132
G1 X77.923 Y99.802 E70.25631
G1 X77.665 Y100.157 E70.32214
G1 X77.504 Y100.564 E70.38779
G1 X77.449 Y101.000 E70.45371
G0 F9000 X77.276 Y100.964
;TYPE:SKIN
G1 F1800 X76.802 Y100.136 E70.57450
G1 X77.392 Y100.373 E70.66987
G0 F9000 X76.632 Y101.027
G1 F1800 X77.495 Y101.890 E70.85294
G0 F9000 X76.820 Y101.923
G1 F1800 X78.289 Y103.391 E71.16446
G0 F9000 X78.292 Y102.687
G1 F1800 X79.162 Y103.557 E71.34901
G0 F9000 X79.798 Y103.486
G1 F1800 X79.527 Y102.861 E71.47000
G1 X80.541 Y103.168 E71.57552
G1 X80.481 Y102.401 E71.67315
G1 X81.265 Y102.478 E71.76886
G1 X81.024 Y101.531 E71.86854
G1 X81.633 Y101.785 E71.96751
G0 F9000 X81.752 Y101.197
G1 F1800 X81.043 Y100.489 E72.11781
G0 F9000 X81.688 Y100.426
G1 F1800 X79.763 Y98.502 E72.52606
G0 F9000 X79.705 Y99.151
G1 F1800 X78.997 Y98.443 E72.67625
G0 F9000 X78.402 Y98.555
G1 F1800 X78.675 Y99.181 E72.79200
G1 X77.718 Y98.932 E72.89376
G1 X77.800 Y99.720 E72.98978
G1 X77.174 Y99.448 E73.09216
G10
G0 F9000 X79.782 Y121.833
;TYPE:WALL-INNER
G11
G1 F1800 X79.806 Y121.843 E73.09606
G1 X79.772 Y121.831 E73.10147
G1 X79.782 Y121.833 E73.10300
G0 F9000 X80.321 Y122.055
G1 F1800 X80.356 Y122.082 E73.10963
G1 X80.300 Y122.047 E73.11953
G1 X80.321 Y122.055 E73.12291
G0 F9000 X80.788 Y122.413
G1 F1800 X80.817 Y122.451 E73.13008
G1 X80.764 Y122.395 E73.14164
G1 X80.788 Y122.413 E73.14614
G0 F9000 X81.144 Y122.879
G1 F1800 X81.158 Y122.913 E73.15166
G1 X81.125 Y122.854 E73.16180
G1 X81.144 Y122.879 E73.16651
G0 F9000 X81.367 Y123.418
G1 F1800 X81.372 Y123.456 E73.17226
G1 X81.354 Y123.388 E73.18281
G1 X81.367 Y123.418 E73.18771
G0 F9000 X81.444 Y123.999
G1 F1800 X81.439 Y124.038 E73.19361
G1 X81.439 Y123.961 E73.20516
G1 X81.444 Y123.999 E73.21091
G0 F9000 X81.367 Y124.582
G1 F1800 X81.354 Y124.614 E73.21609
G1 X81.373 Y124.541 E73.22740
G1 X81.367 Y124.582 E73.23362
G0 F9000 X81.145 Y125.120
G1 F1800 X81.124 Y125.148 E73.23887
G1 X81.163 Y125.077 E73.25102
G1 X81.145 Y125.120 E73.25801
G0 F9000 X80.788 Y125.585
G1 F1800 X80.765 Y125.603 E73.26239
G1 X80.819 Y125.545 E73.27428
G1 X80.788 Y125.585 E73.28187
G0 F9000 X80.321 Y125.944
G1 F1800 X80.300 Y125.952 E73.28524
G1 X80.356 Y125.917 E73.29515
G1 X80.321 Y125.944 E73.30178
G0 F9000 X79.784 Y126.166
G1 F1800 X79.771 Y126.167 E73.30374
G1 X79.811 Y126.154 E73.31004
G1 X79.784 Y126.166 E73.31448
G0 F9000 X80.588 Y126.369
;TYPE:WALL-OUTER
G1 F1800 X80.573 Y126.381 E73.31736
G1 X79.913 Y126.653 E73.42444
G1 X79.217 Y126.745 E73.52974
G1 X79.199 Y126.747 E73.53246
G1 X78.509 Y126.656 E73.63686
G1 X78.489 Y126.653 E73.63989
G1 X77.825 Y126.379 E73.74764
G1 X77.272 Y125.954 E73.85225
G1 X77.256 Y125.942 E73.85525
G1 X76.831 Y125.387 E73.96011
G1 X76.819 Y125.372 E73.96299
G1 X76.547 Y124.712 E74.07007
G1 X76.456 Y124.016 E74.17536
G1 X76.453 Y123.998 E74.17809
G1 X76.544 Y123.308 E74.28249
G1 X76.547 Y123.288 E74.28552
G1 X76.821 Y122.624 E74.39327
G1 X77.246 Y122.071 E74.49789
G1 X77.258 Y122.055 E74.50089
G1 X77.814 Y121.630 E74.60586
G1 X78.489 Y121.346 E74.71571
G1 X79.185 Y121.255 E74.82100
G1 X79.203 Y121.252 E74.82373
G1 X79.892 Y121.343 E74.92798
G1 X79.914 Y121.346 E74.93131
G1 X80.576 Y121.619 E75.03872
G1 X81.129 Y122.045 E75.14343
G1 X81.145 Y122.057 E75.14643
G1 X81.570 Y122.613 E75.25141
G1 X81.854 Y123.288 E75.36125
G1 X81.946 Y123.984 E75.46656
G1 X81.948 Y124.002 E75.46928
G1 X81.857 Y124.691 E75.57353
G1 X81.854 Y124.713 E75.57686
G1 X81.581 Y125.375 E75.68427
G1 X81.155 Y125.928 E75.78898
G1 X81.143 Y125.944 E75.79198
G1 X80.588 Y126.369 E75.89683
G0 F9000 X79.946 Y125.585
G1 F1800 X80.318 Y125.349 E75.96292
G1 X80.618 Y125.029 E76.02871
G1 X80.829 Y124.645 E76.09443
G1 X80.939 Y124.219 E76.16043
G1 X80.939 Y123.780 E76.22628
G1 X80.829 Y123.354 E76.29228
G1 X80.618 Y122.970 E76.35800
G1 X80.318 Y122.650 E76.42379
G1 X79.946 Y122.414 E76.48988
G1 X79.529 Y122.278 E76.55567
G1 X79.083 Y122.252 E76.62268
G1 X78.658 Y122.334 E76.68761
G1 X78.257 Y122.525 E76.75423
G1 X77.923 Y122.801 E76.81922
G1 X77.665 Y123.156 E76.88505
G1 X77.504 Y123.563 E76.95070
G1 X77.449 Y124.000 E77.01677
G1 X77.506 Y124.443 E77.08377
G1 X77.665 Y124.844 E77.14847
G1 X77.924 Y125.199 E77.21439
G1 X78.268 Y125.482 E77.28121
G1 X78.659 Y125.666 E77.34603
G1 X79.090 Y125.749 E77.41187
G1 X79.529 Y125.720 E77.47786
G1 X79.946 Y125.585 E77.54361
G0 F9000 X79.439 Y126.462
;TYPE:SKIN
G1 F1800 X78.953 Y125.976 E77.64670
G0 F9000 X78.698 Y126.428
G1 F1800 X76.771 Y124.500 E78.05559
G0 F9000 X77.228 Y124.251
G1 F1800 X76.992 Y123.661 E78.16005
G1 X76.972 Y122.934 E78.24253
G1 X77.587 Y122.841 E78.31810
G1 X77.583 Y122.131 E78.39095
G1 X78.360 Y122.201 E78.46327
G1 X78.508 Y121.641 E78.54042
G1 X79.407 Y121.834 E78.63586
G1 X79.464 Y121.537 E78.68122
G10
G0 F9000 X65.951 Y122.250
;TYPE:WALL-INNER
G11
G1 F1800 X65.951 Y131.759 E80.10757
G1 X64.451 Y131.760 E80.33257
G1 X64.451 Y122.250 E81.75907
G1 X65.951 Y122.250 E81.98407
G0 F9000 X66.451 Y121.750
;TYPE:WALL-OUTER
G1 F1800 X66.451 Y132.259 E83.56042
G1 X63.951 Y132.260 E83.93542
G1 X63.951 Y121.750 E85.51192
G1 X66.451 Y121.750 E85.88692
G0 F9000 X65.776 Y122.698
;TYPE:SKIN
G1 F1800 X65.502 Y122.424 E85.94505
G0 F9000 X64.795 Y122.424
G1 F1800 X65.776 Y123.405 E86.15315
G0 F9000 X65.776 Y124.112
G1 F1800 X64.626 Y122.962 E86.39710
G0 F9000 X64.626 Y123.669
G1 F1800 X65.776 Y124.819 E86.64105
G0 F9000 X65.776 Y125.527
G1 F1800 X64.626 Y124.376 E86.88511
G0 F9000 X64.626 Y125.083
G1 F1800 X65.776 Y126.234 E87.12917
G0 F9000 X65.776 Y126.941
G1 F1800 X64.626 Y125.790 E87.37323
G0 F9000 X64.626 Y126.497
G1 F1800 X65.776 Y127.648 E87.61729
G0 F9000 X65.776 Y128.355
G1 F1800 X64.626 Y127.204 E87.86134
G0 F9000 X64.626 Y127.912
G1 F1800 X65.776 Y129.062 E88.10530
G0 F9000 X65.776 Y129.769
G1 F1800 X64.626 Y128.619 E88.34925
G0 F9000 X64.626 Y129.326
G1 F1800 X65.776 Y130.476 E88.59320
G0 F9000 X65.776 Y131.183
G1 F1800 X64.626 Y130.033 E88.83715
G0 F9000 X64.626 Y130.740
G1 F1800 X65.468 Y131.583 E89.01587
G0 F9000 X64.762 Y131.584
G1 F1800 X64.626 Y131.447 E89.04483
G10
G0 F9000 X134.957 Y123.999
;TYPE:WALL-INNER
G11
G1 F1800 X135.033 Y123.419 E89.13257
G1 X135.257 Y122.876 E89.22068
G1 X135.612 Y122.414 E89.30808
G1 X136.118 Y122.026 E89.40372
G1 X136.450 Y121.769 E89.46670
G1 X136.450 Y103.229 E92.24770
G1 X135.613 Y102.587 E92.40593
G1 X135.257 Y102.124 E92.49353
G1 X135.033 Y101.583 E92.58137
G1 X134.957 Y100.999 E92.66970
G1 X135.033 Y100.419 E92.75745
G1 X135.255 Y99.880 E92.84489
G1 X135.613 Y99.413 E92.93315
G1 X136.118 Y99.027 E93.02850
G1 X136.450 Y98.770 E93.09147
G1 X136.450 Y93.238 E93.92127
G1 X137.950 Y93.237 E94.14627
G1 X137.950 Y93.451 E94.17837
G1 X149.950 Y93.451 E95.97837
G1 X149.950 Y94.168 E96.08592
G1 X165.549 Y94.172 E98.42577
G1 X165.549 Y94.228 E98.43417
G1 X152.595 Y94.235 E100.37727
G1 X149.950 Y94.232 E100.77402
G1 X149.950 Y94.951 E100.88187
G1 X137.950 Y94.951 E102.68187
G1 X137.950 Y98.772 E103.25502
G1 X138.785 Y99.413 E103.41292
G1 X139.143 Y99.879 E103.50107
G1 X139.366 Y100.421 E103.58898
G1 X139.444 Y101.000 E103.67662
G1 X139.367 Y101.579 E103.76423
G1 X139.142 Y102.124 E103.85267
G1 X138.788 Y102.586 E103.93998
G1 X137.950 Y103.229 E104.09842
G1 X137.950 Y121.771 E106.87972
G1 X138.786 Y122.413 E107.03783
G1 X139.143 Y122.877 E107.12564
G1 X139.366 Y123.420 E107.21370
G1 X139.444 Y124.000 E107.30148
G1 X139.367 Y124.580 E107.38924
G1 X139.144 Y125.120 E107.47688
G1 X138.786 Y125.586 E107.56502
G1 X137.950 Y126.228 E107.72313
G1 X137.950 Y130.049 E108.29628
G1 X149.950 Y130.049 E110.09628
G1 X149.950 Y130.766 E110.20383
G1 X165.549 Y130.771 E112.54368
G1 X165.549 Y130.827 E112.55208
G1 X152.595 Y130.833 E114.49518
G1 X149.950 Y130.830 E114.89193
G1 X149.950 Y131.549 E114.99978
G1 X137.950 Y131.549 E116.79978
G1 X137.950 Y131.762 E116.83173
G1 X136.450 Y131.763 E117.05673
G1 X136.450 Y126.228 E117.88698
G1 X135.614 Y125.587 E118.04500
G1 X135.255 Y125.120 E118.13336
G1 X135.034 Y124.583 E118.22046
G1 X134.957 Y123.999 E118.30882
G0 F9000 X134.543 Y123.308
;TYPE:WALL-OUTER
G1 F1800 X134.546 Y123.288 E118.31186
G1 X134.820 Y122.624 E118.41960
G1 X135.245 Y122.071 E118.52422
G1 X135.257 Y122.055 E118.52722
G1 X135.813 Y121.630 E118.63219
G1 X135.950 Y121.524 E118.65818
G1 X135.950 Y103.476 E121.36538
G1 X135.256 Y102.944 E121.49654
G1 X134.820 Y102.376 E121.60395
G1 X134.546 Y101.712 E121.71170
G1 X134.452 Y100.999 E121.81957
G1 X134.543 Y100.309 E121.92397
G1 X134.546 Y100.287 E121.92730
G1 X134.819 Y99.625 E122.03471
G1 X135.245 Y99.072 E122.13942
G1 X135.257 Y99.056 E122.14242
G1 X135.813 Y98.631 E122.24740
G1 X135.950 Y98.525 E122.27338
G1 X135.950 Y92.738 E123.14143
G1 X138.450 Y92.738 E123.51643
G1 X138.450 Y92.951 E123.54838
G1 X150.450 Y92.951 E125.34838
G1 X150.450 Y93.668 E125.45593
G1 X166.049 Y93.672 E127.79578
G1 X166.049 Y94.728 E127.95418
G1 X150.450 Y94.733 E130.29403
G1 X150.450 Y95.451 E130.40173
G1 X138.450 Y95.451 E132.20173
G1 X138.450 Y98.525 E132.66283
G1 X139.143 Y99.057 E132.79388
G1 X139.579 Y99.625 E132.90128
G1 X139.843 Y100.265 E133.00513
G1 X139.948 Y101.000 E133.11650
G1 X139.853 Y101.712 E133.22425
G1 X139.579 Y102.376 E133.33199
G1 X139.143 Y102.944 E133.43940
G1 X138.450 Y103.476 E133.57045
G1 X138.450 Y121.524 E136.27765
G1 X139.143 Y122.056 E136.40870
G1 X139.579 Y122.625 E136.51622
G1 X139.843 Y123.264 E136.61993
G1 X139.948 Y124.000 E136.73145
G1 X139.853 Y124.712 E136.83919
G1 X139.580 Y125.375 E136.94675
G1 X139.143 Y125.943 E137.05424
G1 X138.450 Y126.475 E137.18529
G1 X138.450 Y129.549 E137.64639
G1 X150.450 Y129.549 E139.44639
G1 X150.450 Y130.266 E139.55394
G1 X166.049 Y130.271 E141.89379
G1 X166.049 Y131.327 E142.05219
G1 X150.450 Y131.331 E144.39204
G1 X150.450 Y132.049 E144.49974
G1 X138.450 Y132.049 E146.29974
G1 X138.450 Y132.262 E146.33169
G1 X135.950 Y132.263 E146.70669
G1 X135.950 Y126.475 E147.57489
G1 X135.256 Y125.943 E147.70606
G1 X134.819 Y125.375 E147.81356
G1 X134.546 Y124.712 E147.92111
G1 X134.452 Y123.999 E148.02898
G1 X134.543 Y123.308 E148.13353
G0 F9000 X135.194 Y123.527
;TYPE:SKIN
G1 F1800 X137.793 Y126.126 E148.68486
G0 F9000 X138.194 Y125.819
G1 F1800 X135.386 Y123.012 E149.28042
G0 F9000 X135.685 Y122.603
G1 F1800 X138.594 Y125.512 E149.89751
G0 F9000 X138.917 Y125.128
G1 F1800 X136.070 Y122.282 E150.50135
G0 F9000 X136.469 Y121.973
G1 F1800 X139.148 Y124.652 E151.06965
G0 F9000 X139.260 Y124.057
G1 F1800 X136.624 Y121.421 E151.62883
G0 F9000 X136.624 Y120.714
G1 F1800 X139.070 Y123.160 E152.14770
G0 F9000 X137.774 Y121.157
G1 F1800 X136.624 Y120.007 E152.39166
G0 F9000 X136.624 Y119.300
G1 F1800 X137.774 Y120.449 E152.63550
G0 F9000 X135.158 Y124.198
G1 F1800 X137.774 Y126.813 E153.19033
G0 F9000 X137.774 Y127.521
G1 F1800 X136.624 Y126.371 E153.43428
G0 F9000 X136.624 Y127.078
G1 F1800 X137.774 Y128.228 E153.67824
G0 F9000 X137.774 Y128.935
G1 F1800 X136.624 Y127.785 E153.92219
G0 F9000 X136.624 Y128.492
G1 F1800 X137.774 Y129.642 E154.16614
G0 F9000 X138.356 Y130.224
G1 F1800 X139.505 Y131.374 E154.40999
G0 F9000 X140.212 Y131.374
G1 F1800 X139.063 Y130.224 E154.65383
G0 F9000 X139.770 Y130.224
G1 F1800 X140.920 Y131.374 E154.89778
