;FLAVOR:UltiGCode
;TIME:4702
;MATERIAL:10925
;MATERIAL2:0

;Layer count: 199
;LAYER:0
M107
G0 F9000 X60.451 Y89.242 Z0.300
;TYPE:SKIRT
G1 F1800 X66.338 Y89.240 E0.88305
G1 X69.951 Y89.250 E1.42500
G1 X69.951 Y90.710 E1.64400
G1 X131.450 Y90.710 E10.86885
G1 X131.450 Y89.239 E11.08950
G1 X137.220 Y89.237 E11.95500
G1 X140.950 Y89.245 E12.51450
G1 X140.950 Y89.451 E12.54540
G1 X153.950 Y89.451 E14.49540
G1 X153.950 Y90.169 E14.60310
G1 X169.549 Y90.172 E16.94295
G1 X169.549 Y98.226 E18.15105
G1 X153.950 Y98.234 E20.49090
G1 X153.950 Y98.951 E20.59845
G1 X143.099 Y98.951 E22.22610
G1 X143.305 Y99.743 E22.34886
G1 X143.425 Y100.191 E22.41843
G1 X143.425 Y101.799 E22.65963
G1 X143.022 Y103.344 E22.89913
G1 X142.243 Y104.738 E23.13866
G1 X141.136 Y105.889 E23.37821
G1 X140.950 Y106.003 E23.41093
G1 X140.950 Y118.997 E25.36003
G1 X141.133 Y119.109 E25.39221
G1 X141.917 Y119.923 E25.56174
G1 X142.247 Y120.269 E25.63346
G1 X142.790 Y121.241 E25.80047
G1 X143.022 Y121.655 E25.87165
G1 X143.305 Y122.742 E26.04014
G1 X143.425 Y123.190 E26.10971
G1 X143.425 Y124.798 E26.35091
G1 X143.099 Y126.049 E26.54482
G1 X153.950 Y126.049 E28.17247
G1 X153.950 Y126.766 E28.28002
G1 X169.549 Y126.772 E30.61987
G1 X169.549 Y134.826 E31.82797
G1 X153.950 Y134.832 E34.16782
G1 X153.950 Y135.549 E34.27537
G1 X140.950 Y135.549 E36.22537
G1 X140.950 Y135.761 E36.25717
G1 X131.450 Y135.764 E37.68217
G1 X131.450 Y134.010 E37.94527
G1 X69.951 Y134.010 E47.17012
G1 X69.951 Y135.758 E47.43232
G1 X60.451 Y135.761 E48.85732
G1 X60.451 Y124.750 E50.50897
G1 X59.951 Y124.750 E50.58397
G1 X59.951 Y100.250 E54.25897
G1 X60.451 Y100.250 E54.33397
G1 X60.451 Y89.242 E55.98517
G10
G0 F9000 X64.451 Y93.241
;TYPE:WALL-INNER
G11
G1 F1800 X65.951 Y93.240 E56.21017
G1 X65.951 Y102.750 E57.63667
G1 X64.451 Y102.750 E57.86167
G1 X64.451 Y93.241 E59.28802
G0 F9000 X63.951 Y92.741
;TYPE:WALL-OUTER
G1 F1800 X66.451 Y92.741 E59.66302
G1 X66.451 Y103.250 E61.23937
G1 X63.951 Y103.250 E61.61437
G1 X63.951 Y92.741 E63.19072
G0 F9000 X64.777 Y93.415
;TYPE:SKIN
G1 F1800 X65.776 Y94.414 E63.40264
G0 F9000 X65.776 Y93.707
G1 F1800 X65.484 Y93.415 E63.46459
G0 F9000 X64.626 Y93.970
G1 F1800 X65.776 Y95.121 E63.70864
G0 F9000 X65.776 Y95.828
G1 F1800 X64.626 Y94.678 E63.95260
G0 F9000 X64.626 Y95.385
G1 F1800 X65.776 Y96.535 E64.19655
G0 F9000 X65.776 Y97.242
G1 F1800 X64.626 Y96.092 E64.44050
G0 F9000 X64.626 Y96.799
G1 F1800 X65.776 Y97.949 E64.68445
G0 F9000 X65.776 Y98.656
G1 F1800 X64.626 Y97.506 E64.92840
G0 F9000 X64.626 Y98.213
G1 F1800 X65.776 Y99.364 E65.17246
G0 F9000 X65.776 Y100.071
G1 F1800 X64.626 Y98.920 E65.41652
G0 F9000 X64.626 Y99.627
G1 F1800 X65.776 Y100.778 E65.66058
G0 F9000 X65.776 Y101.485
G1 F1800 X64.626 Y100.334 E65.90463
G0 F9000 X64.626 Y101.042
G1 F1800 X65.776 Y102.192 E66.14859
G0 F9000 X65.450 Y102.573
G1 F1800 X64.626 Y101.749 E66.32338
G0 F9000 X64.626 Y102.456
G1 F1800 X64.743 Y102.573 E66.34820
G10
G0 F9000 X76.453 Y101.000
;TYPE:WALL-OUTER
G11
G1 F1800 X76.539 Y100.315 E66.45176
G1 X76.792 Y99.677 E66.55471
G1 X77.197 Y99.120 E66.65801
G1 X77.728 Y98.681 E66.76136
G1 X78.350 Y98.387 E66.86455
G1 X79.028 Y98.258 E66.96808
G1 X79.699 Y98.300 E67.06892
G1 X79.712 Y98.301 E67.07088
G1 X80.371 Y98.514 E67.17477
G1 X80.953 Y98.884 E67.27821
G1 X81.424 Y99.385 E67.38136
G1 X81.756 Y99.988 E67.48461
G1 X81.927 Y100.656 E67.58804
G1 X81.927 Y101.345 E67.69139
G1 X81.756 Y102.013 E67.79482
G1 X81.424 Y102.616 E67.89808
G1 X80.953 Y103.117 E68.00122
G1 X80.371 Y103.487 E68.10467
G1 X79.717 Y103.699 E68.20780
G1 X79.042 Y103.742 E68.30925
G1 X79.028 Y103.743 E68.31136
G1 X78.350 Y103.614 E68.41488
G1 X77.769 Y103.340 E68.51124
G1 X77.197 Y102.880 E68.62134
G1 X76.802 Y102.337 E68.72206
G1 X76.792 Y102.323 E68.72464
G1 X76.539 Y101.686 E68.82745
G1 X76.453 Y101.000 E68.93116
G0 F9000 X77.449 Y101.000
G1 F1800 X77.506 Y101.444 E68.99830
G1 X77.665 Y101.845 E69.06301
G1 X77.924 Y102.200 E69.12893
G1 X78.268 Y102.483 E69.19574
G1 X78.659 Y102.667 E69.26056
G1 X79.090 Y102.750 E69.32640
G1 X79.529 Y102.721 E69.39239
G1 X79.946 Y102.586 E69.45814
G1 X80.318 Y102.350 E69.52422
G1 X80.618 Y102.030 E69.59002
G1 X80.829 Y101.646 E69.65574
G1 X80.939 Y101.220 E69.72174
G1 X80.939 Y100.781 E69.78759
G1 X80.829 Y100.355 E69.85358
G1 X80.618 Y99.971 E69.91930
G1 X80.318 Y99.651 E69.98510
G1 X79.946 Y99.415 E70.05118
G1 X79.529 Y99.279 E70.11697
G1 X79.083 Y99.253 E70.18399
G1 X78.658 Y99.335 E70.24891
G1 X78.257 Y99.526 E70.31554
G1 X77.923 Y99.802 E70.38053
G1 X77.665 Y100.157 E70.44636
G1 X77.504 Y100.564 E70.51201
G1 X77.449 Y101.000 E70.57793
G0 F9000 X77.276 Y100.964
;TYPE:SKIN
G1 F1800 X76.802 Y100.136 E70.69871
G1 X77.392 Y100.373 E70.79409
G0 F9000 X76.632 Y101.027
G1 F1800 X77.495 Y101.890 E70.97716
G0 F9000 X76.820 Y101.923
G1 F1800 X78.289 Y103.391 E71.28867
G0 F9000 X78.292 Y102.687
G1 F1800 X79.162 Y103.557 E71.47323
G0 F9000 X79.798 Y103.486
G1 F1800 X79.527 Y102.861 E71.59421
G1 X80.541 Y103.168 E71.69974
G1 X80.481 Y102.401 E71.79737
G1 X81.265 Y102.478 E71.89308
G1 X81.024 Y101.531 E71.99275
G1 X81.633 Y101.785 E72.09173
G0 F9000 X81.752 Y101.197
G1 F1800 X81.043 Y100.489 E72.24202
G0 F9000 X81.688 Y100.426
G1 F1800 X79.763 Y98.502 E72.65027
G0 F9000 X79.705 Y99.151
G1 F1800 X78.997 Y98.443 E72.80046
G0 F9000 X78.402 Y98.555
G1 F1800 X78.675 Y99.181 E72.91622
G1 X77.718 Y98.932 E73.01797
G1 X77.800 Y99.720 E73.11400
G1 X77.174 Y99.448 E73.21638
G10
G0 F9000 X79.782 Y121.833
;TYPE:WALL-INNER
G11
G1 F1800 X79.806 Y121.843 E73.22028
G1 X79.772 Y121.831 E73.22569
G1 X79.782 Y121.833 E73.22721
G0 F9000 X80.321 Y122.055
G1 F1800 X80.356 Y122.082 E73.23385
G1 X80.300 Y122.047 E73.24375
G1 X80.321 Y122.055 E73.24712
G0 F9000 X80.788 Y122.413
G1 F1800 X80.817 Y122.451 E73.25429
G1 X80.764 Y122.395 E73.26586
G1 X80.788 Y122.413 E73.27036
G0 F9000 X81.144 Y122.879
G1 F1800 X81.158 Y122.913 E73.27587
G1 X81.125 Y122.854 E73.28601
G1 X81.144 Y122.879 E73.29072
G0 F9000 X81.367 Y123.418
G1 F1800 X81.372 Y123.456 E73.29647
G1 X81.354 Y123.388 E73.30702
G1 X81.367 Y123.418 E73.31193
G0 F9000 X81.444 Y123.999
G1 F1800 X81.439 Y124.038 E73.31783
G1 X81.439 Y123.961 E73.32938
G1 X81.444 Y123.999 E73.33513
G0 F9000 X81.367 Y124.582
G1 F1800 X81.354 Y124.614 E73.34031
G1 X81.373 Y124.541 E73.35162
G1 X81.367 Y124.582 E73.35784
G0 F9000 X81.145 Y125.120
G1 F1800 X81.124 Y125.148 E73.36309
G1 X81.163 Y125.077 E73.37524
G1 X81.145 Y125.120 E73.38223
G0 F9000 X80.788 Y125.585
G1 F1800 X80.765 Y125.603 E73.38661
G1 X80.819 Y125.545 E73.39850
G1 X80.788 Y125.585 E73.40609
G0 F9000 X80.321 Y125.944
G1 F1800 X80.300 Y125.952 E73.40946
G1 X80.356 Y125.917 E73.41937
G1 X80.321 Y125.944 E73.42600
G0 F9000 X79.784 Y126.166
G1 F1800 X79.771 Y126.167 E73.42795
G1 X79.811 Y126.154 E73.43426
G1 X79.784 Y126.166 E73.43869
G0 F9000 X80.588 Y126.369
;TYPE:WALL-OUTER
G1 F1800 X80.573 Y126.381 E73.44157
G1 X79.913 Y126.653 E73.54865
G1 X79.217 Y126.745 E73.65396
G1 X79.199 Y126.747 E73.65668
G1 X78.509 Y126.656 E73.76107
G1 X78.489 Y126.653 E73.76411
G1 X77.825 Y126.379 E73.87185
G1 X77.272 Y125.954 E73.97647
G1 X77.256 Y125.942 E73.97947
G1 X76.831 Y125.387 E74.08433
G1 X76.819 Y125.372 E74.08721
G1 X76.547 Y124.712 E74.19428
G1 X76.456 Y124.016 E74.29957
G1 X76.453 Y123.998 E74.30231
G1 X76.544 Y123.308 E74.40671
G1 X76.547 Y123.288 E74.40974
G1 X76.821 Y122.624 E74.51749
G1 X77.246 Y122.071 E74.62210
G1 X77.258 Y122.055 E74.62510
G1 X77.814 Y121.630 E74.73008
G1 X78.489 Y121.346 E74.83993
G1 X79.185 Y121.255 E74.94521
G1 X79.203 Y121.252 E74.94795
G1 X79.892 Y121.343 E75.05220
G1 X79.914 Y121.346 E75.05553
G1 X80.576 Y121.619 E75.16294
G1 X81.129 Y122.045 E75.26765
G1 X81.145 Y122.057 E75.27065
G1 X81.570 Y122.613 E75.37562
G1 X81.854 Y123.288 E75.48547
G1 X81.946 Y123.984 E75.59078
G1 X81.948 Y124.002 E75.59350
G1 X81.857 Y124.691 E75.69774
G1 X81.854 Y124.713 E75.70107
G1 X81.581 Y125.375 E75.80849
G1 X81.155 Y125.928 E75.91320
G1 X81.143 Y125.944 E75.91620
G1 X80.588 Y126.369 E76.02105
G0 F9000 X79.946 Y125.585
G1 F1800 X80.318 Y125.349 E76.08713
G1 X80.618 Y125.029 E76.15293
G1 X80.829 Y124.645 E76.21865
G1 X80.939 Y124.219 E76.28465
G1 X80.939 Y123.780 E76.35050
G1 X80.829 Y123.354 E76.41649
G1 X80.618 Y122.970 E76.48221
G1 X80.318 Y122.650 E76.54801
G1 X79.946 Y122.414 E76.61409
G1 X79.529 Y122.278 E76.67988
G1 X79.083 Y122.252 E76.74690
G1 X78.658 Y122.334 E76.81182
G1 X78.257 Y122.525 E76.87845
G1 X77.923 Y122.801 E76.94344
G1 X77.665 Y123.156 E77.00927
G1 X77.504 Y123.563 E77.07492
G1 X77.449 Y124.000 E77.14099
G1 X77.506 Y124.443 E77.20799
G1 X77.665 Y124.844 E77.27269
G1 X77.924 Y125.199 E77.33861
G1 X78.268 Y125.482 E77.40542
G1 X78.659 Y125.666 E77.47024
G1 X79.090 Y125.749 E77.53608
G1 X79.529 Y125.720 E77.60208
G1 X79.946 Y125.585 E77.66782
G0 F9000 X79.439 Y126.462
;TYPE:SKIN
G1 F1800 X78.953 Y125.976 E77.77092
G0 F9000 X78.698 Y126.428
G1 F1800 X76.771 Y124.500 E78.17980
G0 F9000 X77.228 Y124.251
G1 F1800 X76.992 Y123.661 E78.28427
G1 X76.972 Y122.934 E78.36674
G1 X77.587 Y122.841 E78.44232
G1 X77.583 Y122.131 E78.51516
G1 X78.360 Y122.201 E78.58748
G1 X78.508 Y121.641 E78.66464
G1 X79.407 Y121.834 E78.76008
G1 X79.464 Y121.537 E78.80544
G10
G0 F9000 X65.951 Y122.250
;TYPE:WALL-INNER
G11
G1 F1800 X65.951 Y131.759 E80.23179
G1 X64.451 Y131.760 E80.45679
G1 X64.451 Y122.250 E81.88329
G1 X65.951 Y122.250 E82.10829
G0 F9000 X66.451 Y121.750
;TYPE:WALL-OUTER
G1 F1800 X66.451 Y132.259 E83.68464
G1 X63.951 Y132.260 E84.05964
G1 X63.951 Y121.750 E85.63614
G1 X66.451 Y121.750 E86.01114
G0 F9000 X65.776 Y122.698
;TYPE:SKIN
G1 F1800 X65.502 Y122.424 E86.06926
G0 F9000 X64.795 Y122.424
G1 F1800 X65.776 Y123.405 E86.27737
G0 F9000 X65.776 Y124.112
G1 F1800 X64.626 Y122.962 E86.52132
G0 F9000 X64.626 Y123.669
G1 F1800 X65.776 Y124.819 E86.76527
G0 F9000 X65.776 Y125.527
G1 F1800 X64.626 Y124.376 E87.00933
G0 F9000 X64.626 Y125.083
G1 F1800 X65.776 Y126.234 E87.25339
G0 F9000 X65.776 Y126.941
G1 F1800 X64.626 Y125.790 E87.49744
G0 F9000 X64.626 Y126.497
G1 F1800 X65.776 Y127.648 E87.74150
G0 F9000 X65.776 Y128.355
G1 F1800 X64.626 Y127.204 E87.98556
G0 F9000 X64.626 Y127.912
G1 F1800 X65.776 Y129.062 E88.22951
G0 F9000 X65.776 Y129.769
G1 F1800 X64.626 Y128.619 E88.47346
G0 F9000 X64.626 Y129.326
G1 F1800 X65.776 Y130.476 E88.71742
G0 F9000 X65.776 Y131.183
G1 F1800 X64.626 Y130.033 E88.96137
G0 F9000 X64.626 Y130.740
G1 F1800 X65.468 Y131.583 E89.14009
G0 F9000 X64.762 Y131.584
G1 F1800 X64.626 Y131.447 E89.16904
G10
G0 F9000 X134.996 Y124.435
;TYPE:WALL-INNER
G11
G1 F1800 X134.954 Y124.000 E89.23460
G1 X134.993 Y123.593 E89.29593
G1 X135.123 Y123.142 E89.36633
G1 X135.450 Y122.528 E89.47068
G1 X135.450 Y102.472 E92.47908
G1 X135.122 Y101.856 E92.58376
G1 X134.996 Y101.436 E92.64954
G1 X134.954 Y101.000 E92.71524
G1 X134.993 Y100.594 E92.77642
G1 X135.123 Y100.143 E92.84682
G1 X135.450 Y99.529 E92.95117
G1 X135.450 Y93.238 E93.89482
G1 X136.950 Y93.237 E94.11982
G1 X136.950 Y93.451 E94.15192
G1 X149.950 Y93.451 E96.10192
G1 X149.950 Y94.168 E96.20947
G1 X165.549 Y94.172 E98.54932
G1 X165.549 Y94.228 E98.55772
G1 X152.595 Y94.235 E100.50082
G1 X149.950 Y94.232 E100.89757
G1 X149.950 Y94.951 E101.00542
G1 X136.950 Y94.951 E102.95542
G1 X136.950 Y98.598 E103.50247
G1 X138.119 Y98.954 E103.68577
G1 X138.607 Y99.253 E103.77162
G1 X139.000 Y99.661 E103.85659
G1 X139.280 Y100.163 E103.94281
G1 X139.425 Y100.717 E104.02871
G1 X139.425 Y101.284 E104.11376
G1 X139.280 Y101.839 E104.19981
G1 X139.002 Y102.336 E104.28523
G1 X138.606 Y102.748 E104.37095
G1 X138.120 Y103.047 E104.45654
G1 X136.950 Y103.403 E104.63998
G1 X136.950 Y121.597 E107.36908
G1 X138.119 Y121.953 E107.55238
G1 X138.607 Y122.252 E107.63823
G1 X139.000 Y122.660 E107.72320
G1 X139.280 Y123.162 E107.80942
G1 X139.425 Y123.716 E107.89532
G1 X139.425 Y124.283 E107.98037
G1 X139.280 Y124.838 E108.06642
G1 X139.002 Y125.335 E108.15184
G1 X138.606 Y125.747 E108.23756
G1 X138.120 Y126.046 E108.32315
G1 X136.950 Y126.402 E108.50659
G1 X136.950 Y130.049 E109.05364
G1 X149.950 Y130.049 E111.00364
G1 X149.950 Y130.766 E111.11119
G1 X165.549 Y130.771 E113.45104
G1 X165.549 Y130.827 E113.45944
G1 X152.595 Y130.833 E115.40254
G1 X149.950 Y130.830 E115.79929
G1 X149.950 Y131.549 E115.90714
G1 X136.950 Y131.549 E117.85714
G1 X136.950 Y131.762 E117.88909
G1 X135.450 Y131.763 E118.11409
G1 X135.450 Y125.471 E119.05789
G1 X135.122 Y124.855 E119.16258
G1 X134.996 Y124.435 E119.22835
G0 F9000 X134.950 Y125.596
;TYPE:WALL-OUTER
G1 F1800 X134.663 Y125.056 E119.32008
G1 X134.503 Y124.535 E119.40183
G1 X134.453 Y124.012 E119.48064
G1 X134.452 Y123.998 E119.48274
G1 X134.499 Y123.501 E119.55763
G1 X134.658 Y122.953 E119.64322
G1 X134.950 Y122.403 E119.73662
G1 X134.950 Y102.597 E122.70752
G1 X134.663 Y102.057 E122.79925
G1 X134.503 Y101.536 E122.88100
G1 X134.453 Y101.012 E122.95996
G1 X134.452 Y100.998 E122.96207
G1 X134.499 Y100.502 E123.03680
G1 X134.658 Y99.954 E123.12239
G1 X134.950 Y99.404 E123.21580
G1 X134.950 Y92.738 E124.21570
G1 X137.450 Y92.738 E124.59070
G1 X137.450 Y92.951 E124.62265
G1 X150.450 Y92.951 E126.57265
G1 X150.450 Y93.668 E126.68020
G1 X166.049 Y93.672 E129.02005
G1 X166.049 Y94.728 E129.17845
G1 X150.450 Y94.733 E131.51830
G1 X150.450 Y95.451 E131.62600
G1 X137.450 Y95.451 E133.57600
G1 X137.450 Y98.227 E133.99240
G1 X138.301 Y98.486 E134.12583
G1 X138.326 Y98.494 E134.12976
G1 X138.924 Y98.861 E134.23501
G1 X139.389 Y99.344 E134.33558
G1 X139.407 Y99.363 E134.33950
G1 X139.748 Y99.973 E134.44433
G1 X139.918 Y100.627 E134.54569
G1 X139.925 Y101.350 E134.65415
G1 X139.748 Y102.028 E134.75925
G1 X139.407 Y102.638 E134.86408
G1 X138.924 Y103.140 E134.96858
G1 X138.326 Y103.507 E135.07382
G1 X137.450 Y103.774 E135.21119
G1 X137.450 Y121.226 E137.82899
G1 X138.301 Y121.485 E137.96242
G1 X138.326 Y121.493 E137.96636
G1 X138.924 Y121.860 E138.07160
G1 X139.389 Y122.343 E138.17217
G1 X139.407 Y122.362 E138.17610
G1 X139.748 Y122.972 E138.28092
G1 X139.918 Y123.626 E138.38228
G1 X139.925 Y124.349 E138.49074
G1 X139.748 Y125.027 E138.59585
G1 X139.407 Y125.637 E138.70067
G1 X138.924 Y126.139 E138.80517
G1 X138.326 Y126.506 E138.91041
G1 X137.450 Y126.773 E139.04778
G1 X137.450 Y129.549 E139.46418
G1 X150.450 Y129.549 E141.41418
G1 X150.450 Y130.266 E141.52173
G1 X166.049 Y130.271 E143.86158
G1 X166.049 Y131.327 E144.01998
G1 X150.450 Y131.331 E146.35983
G1 X150.450 Y132.049 E146.46753
G1 X137.450 Y132.049 E148.41753
G1 X137.450 Y132.262 E148.44948
G1 X134.950 Y132.263 E148.82448
G1 X134.950 Y125.596 E149.82453
G0 F9000 X135.560 Y125.307
;TYPE:SKIN
G1 F1800 X136.774 Y126.521 E150.08206
G0 F9000 X137.125 Y126.165
G1 F1800 X135.147 Y124.187 E150.50166
G0 F9000 X135.193 Y123.525
G1 F1800 X137.668 Y126.000 E151.02668
G0 F9000 X138.177 Y125.803
G1 F1800 X135.388 Y123.013 E151.61843
G0 F9000 X135.623 Y122.542
G1 F1800 X138.591 Y125.510 E152.24803
G0 F9000 X138.917 Y125.128
G1 F1800 X135.623 Y121.835 E152.94669
G0 F9000 X135.623 Y121.128
G1 F1800 X139.147 Y124.651 E153.69414
G0 F9000 X139.249 Y124.046
G1 F1800 X136.996 Y121.793 E154.17207
G0 F9000 X136.774 Y121.571
G1 F1800 X135.623 Y120.420 E154.41624
G0 F9000 X135.623 Y119.713
G1 F1800 X136.774 Y120.864 E154.66040
G0 F9000 X136.774 Y120.157
G1 F1800 X135.623 Y119.006 E154.90456
G0 F9000 X135.623 Y118.299
G1 F1800 X136.774 Y119.450 E155.14873
G0 F9000 X136.774 Y118.743
G1 F1800 X135.623 Y117.592 E155.39289
G0 F9000 X135.623 Y116.885
G1 F1800 X136.774 Y118.035 E155.63695
G0 F9000 X136.774 Y117.328
G1 F1800 X135.623 Y116.178 E155.88101
