;FLAVOR:UltiGCode
;TIME:11454
;MATERIAL:11283
;MATERIAL2:0

;Layer count: 298
;LAYER:0
M107
G0 F9000 X60.501 Y89.278 Z0.300
;TYPE:SKIRT
G1 F1200 X66.296 Y89.276 E0.69540
G1 X69.901 Y89.285 E1.12800
G1 X69.901 Y90.760 E1.30500
G1 X132.500 Y90.760 E8.81688
G1 X132.500 Y89.274 E8.99520
G1 X138.165 Y89.272 E9.67500
G1 X141.900 Y89.279 E10.12320
G1 X141.900 Y89.501 E10.14984
G1 X153.900 Y89.501 E11.58984
G1 X153.900 Y90.184 E11.67180
G1 X154.486 Y90.184 E11.74212
G1 X169.499 Y90.189 E13.54368
G1 X169.499 Y98.210 E14.50620
G1 X154.487 Y98.218 E16.30764
G1 X153.900 Y98.218 E16.37808
G1 X153.900 Y98.901 E16.46004
G1 X143.013 Y98.901 E17.76648
G1 X143.031 Y98.945 E17.77219
G1 X143.215 Y99.394 E17.83042
G1 X143.360 Y100.496 E17.96380
G1 X143.361 Y100.496 E17.96392
G1 X143.429 Y100.991 E18.02387
G1 X143.214 Y102.613 E18.22022
G1 X142.594 Y104.113 E18.41499
G1 X141.900 Y105.017 E18.55175
G1 X141.900 Y119.982 E20.34755
G1 X142.298 Y120.501 E20.42603
G1 X142.297 Y120.501 E20.42615
G1 X142.593 Y120.885 E20.48433
G1 X143.031 Y121.943 E20.62174
G1 X143.215 Y122.393 E20.68008
G1 X143.360 Y123.496 E20.81358
G1 X143.361 Y123.496 E20.81370
G1 X143.429 Y123.991 E20.87366
G1 X143.214 Y125.611 E21.06976
G1 X143.013 Y126.099 E21.13310
G1 X153.900 Y126.099 E22.43954
G1 X153.900 Y126.783 E22.52162
G1 X154.486 Y126.783 E22.59194
G1 X169.499 Y126.788 E24.39350
G1 X169.499 Y134.809 E25.35602
G1 X154.487 Y134.817 E27.15746
G1 X153.900 Y134.817 E27.22790
G1 X153.900 Y135.499 E27.30974
G1 X141.900 Y135.499 E28.74974
G1 X141.900 Y135.727 E28.77710
G1 X138.165 Y135.727 E29.22530
G1 X132.500 Y135.729 E29.90510
G1 X132.500 Y133.960 E30.11738
G1 X69.901 Y133.960 E37.62926
G1 X69.901 Y135.722 E37.84070
G1 X60.501 Y135.725 E38.96870
G1 X60.501 Y124.700 E40.29170
G1 X60.001 Y124.700 E40.35170
G1 X60.001 Y100.300 E43.27970
G1 X60.501 Y100.300 E43.33970
G1 X60.501 Y89.278 E44.66234
G10
G0 F9000 X64.301 Y93.077
;TYPE:WALL-INNER
G11
G1 F1200 X66.101 Y93.076 E44.87834
G1 X66.101 Y102.900 E46.05722
G1 X64.301 Y102.900 E46.27322
G1 X64.301 Y93.077 E47.45198
G0 F9000 X63.901 Y92.677
;TYPE:WALL-OUTER
G1 F1200 X66.501 Y92.677 E47.76398
G1 X66.501 Y103.300 E49.03874
G1 X63.901 Y103.300 E49.35074
G1 X63.901 Y92.677 E50.62550
G0 F9000 X64.649 Y93.216
;TYPE:SKIN
G1 F900 X65.961 Y94.528 E50.84815
G0 F9000 X65.961 Y95.093
G1 F900 X64.440 Y93.573 E51.10619
G0 F9000 X64.440 Y94.139
G1 F900 X65.961 Y95.659 E51.36422
G0 F9000 X65.961 Y96.225
G1 F900 X64.440 Y94.704 E51.62235
G0 F9000 X64.440 Y95.270
G1 F900 X65.961 Y96.790 E51.88038
G0 F9000 X65.961 Y97.356
G1 F900 X64.440 Y95.836 E52.13842
G0 F9000 X64.440 Y96.401
G1 F900 X65.961 Y97.922 E52.39654
G0 F9000 X65.961 Y98.487
G1 F900 X64.440 Y96.967 E52.65458
G0 F9000 X64.440 Y97.533
G1 F900 X65.961 Y99.053 E52.91262
G0 F9000 X65.961 Y99.619
G1 F900 X64.440 Y98.099 E53.17066
G0 F9000 X64.440 Y98.664
G1 F900 X65.961 Y100.185 E53.42878
G0 F9000 X65.961 Y100.750
G1 F900 X64.440 Y99.230 E53.68682
G0 F9000 X64.440 Y99.796
G1 F900 X65.961 Y101.316 E53.94485
G0 F9000 X65.961 Y101.882
G1 F900 X64.440 Y100.361 E54.20298
G0 F9000 X64.440 Y100.927
G1 F900 X65.961 Y102.447 E54.46101
G0 F9000 X65.706 Y102.758
G1 F900 X64.440 Y101.493 E54.67578
G0 F9000 X64.440 Y102.058
G1 F900 X65.140 Y102.758 E54.79457
G0 F9000 X64.575 Y102.758
G1 F900 X64.440 Y102.624 E54.81740
G0 F9000 X65.961 Y93.962
G1 F900 X65.215 Y93.216 E54.94400
G0 F9000 X65.780 Y93.216
G1 F900 X65.961 Y93.396 E54.97463
G10
G0 F9000 X77.102 Y99.845
;TYPE:WALL-INNER
G11
G1 F1200 X77.456 Y99.360 E55.04668
G1 X77.914 Y98.980 E55.11810
G1 X78.463 Y98.721 E55.19094
G1 X79.047 Y98.610 E55.26227
G1 X79.647 Y98.647 E55.33441
G1 X80.219 Y98.833 E55.40659
G1 X80.730 Y99.157 E55.47920
G1 X81.138 Y99.592 E55.55076
G1 X81.428 Y100.120 E55.62305
G1 X81.577 Y100.700 E55.69491
G1 X81.577 Y101.301 E55.76703
G1 X81.428 Y101.881 E55.83889
G1 X81.138 Y102.409 E55.91118
G1 X80.728 Y102.845 E55.98300
G1 X80.219 Y103.168 E56.05534
G1 X79.650 Y103.353 E56.12714
G1 X79.044 Y103.391 E56.20000
G1 X78.463 Y103.280 E56.27098
G1 X77.915 Y103.022 E56.34366
G1 X77.456 Y102.642 E56.41517
G1 X77.102 Y102.155 E56.48742
G1 X76.880 Y101.596 E56.55959
G1 X76.805 Y101.000 E56.63168
G1 X76.880 Y100.406 E56.70352
G1 X77.102 Y99.845 E56.77592
G0 F9000 X77.356 Y99.987
G1 F1200 X77.162 Y100.477 E56.83916
G1 X77.096 Y101.002 E56.90266
G1 X77.166 Y101.532 E56.96681
G1 X77.356 Y102.014 E57.02898
G1 X77.667 Y102.442 E57.09247
G1 X78.081 Y102.781 E57.15668
G1 X78.549 Y103.002 E57.21879
G1 X79.068 Y103.102 E57.28221
G1 X79.596 Y103.068 E57.34571
G1 X80.097 Y102.905 E57.40893
G1 X80.543 Y102.622 E57.47231
G1 X80.903 Y102.237 E57.53556
G1 X81.157 Y101.776 E57.59872
G1 X81.289 Y101.264 E57.66217
G1 X81.289 Y100.737 E57.72541
G1 X81.157 Y100.224 E57.78898
G1 X80.897 Y99.756 E57.85322
G1 X80.542 Y99.379 E57.91536
G1 X80.097 Y99.096 E57.97865
G1 X79.594 Y98.933 E58.04210
G1 X79.058 Y98.901 E58.10653
G1 X78.548 Y99.000 E58.16887
G1 X78.066 Y99.229 E58.23291
G1 X77.666 Y99.560 E58.29521
G1 X77.356 Y99.987 E58.35853
G0 F9000 X77.709 Y100.181
;TYPE:WALL-OUTER
G1 F1200 X77.553 Y100.577 E58.40961
G1 X77.499 Y101.001 E58.46090
G1 X77.556 Y101.431 E58.51295
G1 X77.709 Y101.820 E58.56311
G1 X77.960 Y102.165 E58.61431
G1 X78.296 Y102.440 E58.66641
G1 X78.674 Y102.619 E58.71660
G1 X79.093 Y102.699 E58.76779
G1 X79.520 Y102.672 E58.81913
G1 X79.925 Y102.540 E58.87025
G1 X80.286 Y102.311 E58.92155
G1 X80.577 Y102.000 E58.97266
G1 X80.782 Y101.627 E59.02373
G1 X80.889 Y101.213 E59.07504
G1 X80.889 Y100.788 E59.12604
G1 X80.782 Y100.373 E59.17747
G1 X80.572 Y99.994 E59.22947
G1 X80.285 Y99.690 E59.27964
G1 X79.925 Y99.461 E59.33084
G1 X79.519 Y99.329 E59.38207
G1 X79.085 Y99.303 E59.43424
G1 X78.674 Y99.383 E59.48449
G1 X78.283 Y99.569 E59.53644
G1 X77.960 Y99.836 E59.58673
G1 X77.709 Y100.181 E59.63793
G0 F9000 X76.748 Y99.653
G1 F1200 X77.163 Y99.083 E59.72254
G1 X77.700 Y98.639 E59.80615
G1 X78.337 Y98.338 E59.89070
G1 X79.021 Y98.207 E59.97427
G1 X79.697 Y98.250 E60.05555
G1 X79.723 Y98.251 E60.05867
G1 X80.392 Y98.468 E60.14307
G1 X80.984 Y98.844 E60.22723
G1 X81.466 Y99.357 E60.31170
G1 X81.801 Y99.967 E60.39521
G1 X81.977 Y100.652 E60.48008
G1 X81.977 Y101.349 E60.56372
G1 X81.801 Y102.034 E60.64859
G1 X81.466 Y102.644 E60.73210
G1 X80.984 Y103.157 E60.81657
G1 X80.415 Y103.517 E60.89737
G1 X80.391 Y103.533 E60.90083
G1 X79.727 Y103.748 E60.98459
G1 X79.051 Y103.791 E61.06587
G1 X79.021 Y103.794 E61.06949
G1 X78.337 Y103.663 E61.15306
G1 X77.726 Y103.375 E61.23412
G1 X77.702 Y103.364 E61.23728
G1 X77.161 Y102.917 E61.32150
G1 X76.765 Y102.371 E61.40244
G1 X76.749 Y102.350 E61.40560
G1 X76.490 Y101.695 E61.49013
G1 X76.402 Y101.000 E61.57419
G1 X76.490 Y100.306 E61.65814
G1 X76.748 Y99.653 E61.74239
G10
G0 F9000 X79.202 Y121.605
;TYPE:WALL-INNER
G11
G1 F1200 X79.819 Y121.686 E61.81707
G1 X80.397 Y121.924 E61.89208
G1 X80.894 Y122.305 E61.96723
G1 X81.274 Y122.800 E62.04211
G1 X81.514 Y123.383 E62.11777
G1 X81.596 Y124.001 E62.19258
G1 X81.514 Y124.618 E62.26727
G1 X81.276 Y125.196 E62.34228
G1 X80.895 Y125.693 E62.41743
G1 X80.400 Y126.073 E62.49231
G1 X79.817 Y126.313 E62.56797
G1 X79.200 Y126.395 E62.64266
G1 X78.584 Y126.314 E62.71721
G1 X78.004 Y126.074 E62.79254
G1 X77.507 Y125.694 E62.86761
G1 X77.127 Y125.199 E62.94250
G1 X76.887 Y124.617 E63.01804
G1 X76.806 Y123.998 E63.09296
G1 X76.886 Y123.383 E63.16738
G1 X77.126 Y122.803 E63.24270
G1 X77.506 Y122.306 E63.31778
G1 X78.001 Y121.926 E63.39266
G1 X78.584 Y121.686 E63.46832
G1 X79.202 Y121.605 E63.54311
G0 F9000 X79.058 Y121.900
G1 F1200 X78.548 Y121.999 E63.60545
G1 X78.066 Y122.228 E63.66949
G1 X77.666 Y122.559 E63.73179
G1 X77.356 Y122.986 E63.79511
G1 X77.162 Y123.476 E63.85835
G1 X77.096 Y124.002 E63.92197
G1 X77.166 Y124.532 E63.98612
G1 X77.356 Y125.013 E64.04818
G1 X77.667 Y125.441 E64.11167
G1 X78.081 Y125.780 E64.17588
G1 X78.549 Y126.001 E64.23798
G1 X79.068 Y126.101 E64.30141
G1 X79.596 Y126.067 E64.36490
G1 X80.097 Y125.904 E64.42812
G1 X80.543 Y125.621 E64.49151
G1 X80.903 Y125.236 E64.55476
G1 X81.157 Y124.775 E64.61792
G1 X81.289 Y124.263 E64.68137
G1 X81.289 Y123.736 E64.74461
G1 X81.157 Y123.223 E64.80817
G1 X80.897 Y122.755 E64.87242
G1 X80.542 Y122.378 E64.93456
G1 X80.097 Y122.095 E64.99784
G1 X79.594 Y121.932 E65.06129
G1 X79.058 Y121.900 E65.12573
G0 F9000 X79.085 Y122.302
;TYPE:WALL-OUTER
G1 F1200 X78.674 Y122.382 E65.17597
G1 X78.283 Y122.568 E65.22793
G1 X77.960 Y122.835 E65.27822
G1 X77.709 Y123.180 E65.32942
G1 X77.553 Y123.576 E65.38049
G1 X77.499 Y124.001 E65.43190
G1 X77.556 Y124.431 E65.48395
G1 X77.709 Y124.819 E65.53400
G1 X77.960 Y125.164 E65.58520
G1 X78.296 Y125.439 E65.63730
G1 X78.674 Y125.618 E65.68749
G1 X79.093 Y125.698 E65.73868
G1 X79.520 Y125.671 E65.79002
G1 X79.925 Y125.539 E65.84114
G1 X80.286 Y125.310 E65.89244
G1 X80.577 Y124.999 E65.94355
G1 X80.782 Y124.626 E65.99462
G1 X80.889 Y124.212 E66.04594
G1 X80.889 Y123.787 E66.09694
G1 X80.782 Y123.372 E66.14836
G1 X80.572 Y122.993 E66.20036
G1 X80.285 Y122.689 E66.25053
G1 X79.925 Y122.460 E66.30173
G1 X79.519 Y122.328 E66.35296
G1 X79.085 Y122.302 E66.40513
G0 F9000 X79.173 Y121.206
G1 F1200 X79.204 Y121.202 E66.40888
G1 X79.893 Y121.292 E66.49226
G1 X79.924 Y121.297 E66.49603
G1 X80.571 Y121.563 E66.57998
G1 X80.598 Y121.575 E66.58352
G1 X81.179 Y122.021 E66.67142
G1 X81.625 Y122.602 E66.75931
G1 X81.892 Y123.250 E66.84341
G1 X81.904 Y123.278 E66.84707
G1 X81.995 Y123.972 E66.93106
G1 X81.999 Y124.001 E66.93457
G1 X81.908 Y124.692 E67.01821
G1 X81.904 Y124.721 E67.02172
G1 X81.637 Y125.370 E67.10594
G1 X81.625 Y125.397 E67.10948
G1 X81.179 Y125.978 E67.19738
G1 X80.599 Y126.424 E67.28517
G1 X79.950 Y126.691 E67.36939
G1 X79.922 Y126.703 E67.37304
G1 X79.229 Y126.794 E67.45692
G1 X79.199 Y126.798 E67.46055
G1 X78.508 Y126.707 E67.54418
G1 X78.477 Y126.702 E67.54795
G1 X77.831 Y126.436 E67.63179
G1 X77.804 Y126.424 E67.63533
G1 X77.222 Y125.978 E67.72332
G1 X76.776 Y125.398 E67.81112
G1 X76.509 Y124.749 E67.89533
G1 X76.497 Y124.721 E67.89899
G1 X76.407 Y124.028 E67.98285
G1 X76.403 Y123.997 E67.98660
G1 X76.493 Y123.307 E68.07010
G1 X76.498 Y123.276 E68.07387
G1 X76.764 Y122.630 E68.15770
G1 X76.776 Y122.603 E68.16125
G1 X77.222 Y122.021 E68.24924
G1 X77.803 Y121.575 E68.33713
G1 X78.451 Y121.308 E68.42123
G1 X78.479 Y121.296 E68.42489
G1 X79.173 Y121.206 E68.50886
G10
G0 F9000 X66.101 Y122.100
;TYPE:WALL-INNER
G11
G1 F1200 X66.101 Y131.923 E69.68762
G1 X64.301 Y131.924 E69.90362
G1 X64.301 Y122.100 E71.08250
G1 X66.101 Y122.100 E71.29850
G0 F9000 X66.501 Y121.700
;TYPE:WALL-OUTER
G1 F1200 X66.501 Y132.323 E72.57326
G1 X63.901 Y132.324 E72.88526
G1 X63.901 Y121.700 E74.16014
G1 X66.501 Y121.700 E74.47214
G0 F9000 X65.961 Y122.812
;TYPE:SKIN
G1 F900 X65.388 Y122.239 E74.56939
G0 F9000 X64.822 Y122.239
G1 F900 X65.961 Y123.378 E74.76268
G0 F9000 X65.961 Y123.943
G1 F900 X64.440 Y122.423 E75.02072
G0 F9000 X64.440 Y122.989
G1 F900 X65.961 Y124.509 E75.27876
G0 F9000 X65.961 Y125.075
G1 F900 X64.440 Y123.554 E75.53688
G0 F9000 X64.440 Y124.120
G1 F900 X65.961 Y125.640 E75.79492
G0 F9000 X65.961 Y126.206
G1 F900 X64.440 Y124.686 E76.05295
G0 F9000 X64.440 Y125.251
G1 F900 X65.961 Y126.772 E76.31107
G0 F9000 X65.961 Y127.337
G1 F900 X64.440 Y125.817 E76.56911
G0 F9000 X64.440 Y126.383
G1 F900 X65.961 Y127.903 E76.82715
G0 F9000 X65.961 Y128.469
G1 F900 X64.440 Y126.949 E77.08519
G0 F9000 X64.440 Y127.514
G1 F900 X65.961 Y129.034 E77.34322
G0 F9000 X65.961 Y129.600
G1 F900 X64.440 Y128.080 E77.60126
G0 F9000 X64.440 Y128.646
G1 F900 X65.961 Y130.166 E77.85930
G0 F9000 X65.961 Y130.732
G1 F900 X64.440 Y129.211 E78.11742
G0 F9000 X64.440 Y129.777
G1 F900 X65.961 Y131.297 E78.37546
G0 F9000 X65.880 Y131.782
G1 F900 X64.440 Y130.343 E78.61975
G0 F9000 X64.440 Y130.908
G1 F900 X65.314 Y131.782 E78.76807
G0 F9000 X64.749 Y131.782
G1 F900 X64.440 Y131.474 E78.82043
G10
G0 F9000 X134.805 Y123.999
;TYPE:WALL-INNER
G11
G1 F1200 X134.885 Y123.383 E78.89497
G1 X135.125 Y122.803 E78.97029
G1 X135.505 Y122.306 E79.04537
G1 X136.022 Y121.910 E79.12351
G1 X136.300 Y121.696 E79.16561
G1 X136.300 Y103.303 E81.37277
G1 X135.506 Y102.694 E81.49285
G1 X135.124 Y102.197 E81.56807
G1 X134.887 Y101.623 E81.64259
G1 X134.805 Y101.000 E81.71800
G1 X134.886 Y100.382 E81.79279
G1 X135.124 Y99.804 E81.86780
G1 X135.505 Y99.307 E81.94295
G1 X136.022 Y98.911 E82.02110
G1 X136.300 Y98.697 E82.06320
G1 X136.300 Y93.073 E82.73808
G1 X138.100 Y93.072 E82.95408
G1 X138.100 Y93.301 E82.98156
G1 X150.100 Y93.301 E84.42156
G1 X150.100 Y93.985 E84.50364
G1 X165.699 Y93.988 E86.37552
G1 X165.699 Y94.412 E86.42640
G1 X150.100 Y94.415 E88.29828
G1 X150.100 Y95.101 E88.38060
G1 X138.100 Y95.101 E89.82060
G1 X138.100 Y98.698 E90.25224
G1 X138.893 Y99.307 E90.37222
G1 X139.273 Y99.801 E90.44701
G1 X139.512 Y100.380 E90.52218
G1 X139.594 Y101.002 E90.59746
G1 X139.512 Y101.623 E90.67263
G1 X139.275 Y102.197 E90.74715
G1 X138.893 Y102.694 E90.82237
G1 X138.100 Y103.303 E90.94236
G1 X138.100 Y121.697 E93.14964
G1 X138.893 Y122.306 E93.26962
G1 X139.275 Y122.803 E93.34484
G1 X139.512 Y123.376 E93.41925
G1 X139.594 Y124.002 E93.49501
G1 X139.512 Y124.619 E93.56970
G1 X139.273 Y125.199 E93.64498
G1 X138.893 Y125.693 E93.71977
G1 X138.100 Y126.302 E93.83976
G1 X138.100 Y129.899 E94.27140
G1 X150.100 Y129.899 E95.71140
G1 X150.100 Y130.584 E95.79360
G1 X165.699 Y130.587 E97.66548
G1 X165.699 Y131.011 E97.71636
G1 X150.100 Y131.014 E99.58824
G1 X150.100 Y131.699 E99.67044
G1 X138.100 Y131.699 E101.11044
G1 X138.100 Y131.927 E101.13780
G1 X136.300 Y131.928 E101.35380
G1 X136.300 Y126.302 E102.02892
G1 X135.506 Y125.693 E102.14899
G1 X135.126 Y125.199 E102.22378
G1 X134.887 Y124.619 E102.29906
G1 X134.805 Y123.999 E102.37411
G0 F9000 X134.492 Y123.307
;TYPE:WALL-OUTER
G1 F1200 X134.497 Y123.276 E102.37788
G1 X134.763 Y122.630 E102.46171
G1 X134.775 Y122.603 E102.46526
G1 X135.221 Y122.021 E102.55325
G1 X135.900 Y121.500 E102.65595
G1 X135.900 Y103.500 E104.81595
G1 X135.221 Y102.979 E104.91865
G1 X134.775 Y102.398 E105.00654
G1 X134.496 Y101.724 E105.09408
G1 X134.401 Y101.000 E105.18170
G1 X134.492 Y100.308 E105.26546
G1 X134.497 Y100.277 E105.26923
G1 X134.763 Y99.630 E105.35317
G1 X134.775 Y99.603 E105.35672
G1 X135.221 Y99.022 E105.44461
G1 X135.900 Y98.501 E105.54731
G1 X135.900 Y92.673 E106.24667
G1 X138.500 Y92.673 E106.55867
G1 X138.500 Y92.901 E106.58603
G1 X150.500 Y92.901 E108.02603
G1 X150.500 Y93.585 E108.10811
G1 X166.099 Y93.588 E109.97999
G1 X166.099 Y94.812 E110.12687
G1 X150.500 Y94.815 E111.99875
G1 X150.500 Y95.501 E112.08107
G1 X138.500 Y95.501 E113.52107
G1 X138.500 Y98.501 E113.88107
G1 X139.178 Y99.022 E113.98368
G1 X139.624 Y99.602 E114.07148
G1 X139.903 Y100.277 E114.15913
G1 X139.993 Y100.962 E114.24203
G1 X139.998 Y101.001 E114.24675
G1 X139.903 Y101.724 E114.33426
G1 X139.624 Y102.398 E114.42179
G1 X139.178 Y102.979 E114.50969
G1 X138.500 Y103.500 E114.61229
G1 X138.500 Y121.500 E116.77229
G1 X139.178 Y122.021 E116.87490
G1 X139.624 Y122.602 E116.96279
G1 X139.903 Y123.276 E117.05033
G1 X139.993 Y123.962 E117.13335
G1 X139.998 Y124.001 E117.13807
G1 X139.903 Y124.723 E117.22546
G1 X139.624 Y125.398 E117.31311
G1 X139.178 Y125.978 E117.40090
G1 X138.500 Y126.499 E117.50351
G1 X138.500 Y129.499 E117.86351
G1 X150.500 Y129.499 E119.30351
G1 X150.500 Y130.184 E119.38571
G1 X166.099 Y130.187 E121.25759
G1 X166.099 Y131.411 E121.40447
G1 X150.500 Y131.414 E123.27635
G1 X150.500 Y132.099 E123.35855
G1 X138.500 Y132.099 E124.79855
G1 X138.500 Y132.327 E124.82591
