;FLAVOR:UltiGCode
;TIME:2731
;MATERIAL:1218
;MATERIAL2:0

;Layer count: 294
;LAYER:0
M107
G0 F9000 X105.500 Y103.476 Z0.300
;TYPE:SKIRT
G1 F1200 X106.402 Y102.613 E0.14980
G1 X107.383 Y101.838 E0.29983
G1 X108.434 Y101.160 E0.44991
G1 X109.546 Y100.586 E0.60008
G1 X110.706 Y100.121 E0.75005
G1 X111.904 Y99.768 E0.89992
G1 X113.131 Y99.531 E1.04988
G1 X114.322 Y99.417 E1.19345
G1 X114.529 Y99.411 E1.21830
G1 X115.626 Y99.412 E1.34994
G1 X116.660 Y99.510 E1.47458
G1 X116.854 Y99.527 E1.49795
G1 X118.055 Y99.759 E1.64473
G1 X119.249 Y100.106 E1.79394
G1 X120.410 Y100.566 E1.94380
G1 X121.524 Y101.136 E2.09396
G1 X122.500 Y101.760 E2.23297
G1 X122.671 Y101.880 E2.25804
G1 X123.564 Y102.584 E2.39450
G1 X124.467 Y103.441 E2.54389
G1 X125.286 Y104.383 E2.69368
G1 X126.013 Y105.400 E2.84369
G1 X126.640 Y106.484 E2.99397
G1 X127.159 Y107.618 E3.14362
G1 X127.570 Y108.798 E3.29356
G1 X127.866 Y110.017 E3.44409
G1 X128.042 Y111.249 E3.59344
G1 X128.104 Y112.497 E3.74338
G1 X128.053 Y113.563 E3.87145
G1 X128.041 Y113.766 E3.89585
G1 X127.873 Y114.942 E4.03840
G1 X127.583 Y116.155 E4.18806
G1 X127.178 Y117.335 E4.33777
G1 X126.662 Y118.473 E4.48771
G1 X126.040 Y119.558 E4.63779
G1 X125.316 Y120.578 E4.78789
G1 X124.500 Y121.524 E4.93781
G1 X123.598 Y122.387 E5.08761
G1 X122.617 Y123.162 E5.23763
G1 X121.566 Y123.840 E5.38772
G1 X120.454 Y124.414 E5.53789
G1 X119.294 Y124.879 E5.68786
G1 X118.096 Y125.232 E5.83773
G1 X116.869 Y125.469 E5.98769
G1 X115.625 Y125.588 E6.13765
G1 X114.622 Y125.588 E6.25801
G1 X114.428 Y125.594 E6.28130
G1 X113.337 Y125.490 E6.41281
G1 X113.146 Y125.473 E6.43582
G1 X111.945 Y125.241 E6.58261
G1 X110.751 Y124.894 E6.73182
G1 X109.590 Y124.434 E6.88167
G1 X108.476 Y123.864 E7.03184
G1 X107.500 Y123.240 E7.17085
G1 X107.329 Y123.120 E7.19592
G1 X106.436 Y122.416 E7.33237
G1 X105.533 Y121.559 E7.48176
G1 X104.714 Y120.617 E7.63155
G1 X103.987 Y119.600 E7.78157
G1 X103.360 Y118.516 E7.93184
G1 X102.841 Y117.382 E8.08150
G1 X102.430 Y116.202 E8.23144
G1 X102.134 Y114.983 E8.38197
G1 X101.958 Y113.751 E8.53131
G1 X101.896 Y112.503 E8.68126
G1 X101.947 Y111.437 E8.80932
G1 X101.959 Y111.234 E8.83373
G1 X102.127 Y110.058 E8.97628
G1 X102.417 Y108.845 E9.12594
G1 X102.822 Y107.665 E9.27565
G1 X103.338 Y106.527 E9.42559
G1 X103.960 Y105.442 E9.57567
G1 X104.684 Y104.422 E9.72577
G1 X105.500 Y103.476 E9.87568
G0 F9000 X105.790 Y103.752
G1 F1200 X106.665 Y102.915 E10.02099
G1 X107.616 Y102.164 E10.16640
G1 X108.634 Y101.507 E10.31179
G1 X109.712 Y100.950 E10.45740
G1 X110.837 Y100.499 E10.60285
G1 X111.999 Y100.157 E10.74820
G1 X113.188 Y99.927 E10.89352
G1 X114.347 Y99.816 E11.03324
G1 X114.535 Y99.811 E11.05581
G1 X115.607 Y99.812 E11.18445
G1 X116.601 Y99.906 E11.30426
G1 X116.799 Y99.924 E11.32812
G1 X117.961 Y100.148 E11.47013
G1 X119.120 Y100.484 E11.61493
G1 X120.245 Y100.931 E11.76020
G1 X121.325 Y101.483 E11.90575
G1 X122.277 Y102.092 E12.04136
G1 X122.432 Y102.201 E12.06410
G1 X123.302 Y102.886 E12.19698
G1 X124.177 Y103.718 E12.34187
G1 X124.971 Y104.631 E12.48706
G1 X125.677 Y105.617 E12.63258
G1 X126.284 Y106.668 E12.77823
G1 X126.788 Y107.768 E12.92342
G1 X127.186 Y108.912 E13.06877
G1 X127.473 Y110.092 E13.21450
G1 X127.644 Y111.288 E13.35948
G1 X127.704 Y112.498 E13.50486
G1 X127.653 Y113.542 E13.63029
G1 X127.643 Y113.726 E13.65240
G1 X127.480 Y114.867 E13.79071
G1 X127.198 Y116.043 E13.93583
G1 X126.805 Y117.187 E14.08099
G1 X126.306 Y118.291 E14.22637
G1 X125.702 Y119.343 E14.37194
G1 X125.001 Y120.331 E14.51731
G1 X124.210 Y121.248 E14.66263
G1 X123.335 Y122.085 E14.80794
G1 X122.384 Y122.836 E14.95335
G1 X121.366 Y123.493 E15.09874
G1 X120.288 Y124.050 E15.24435
G1 X119.163 Y124.501 E15.38979
G1 X118.001 Y124.843 E15.53515
G1 X116.812 Y125.073 E15.68047
G1 X115.606 Y125.188 E15.82585
G1 X114.636 Y125.188 E15.94225
G1 X114.441 Y125.193 E15.96566
G1 X113.399 Y125.093 E16.09127
G1 X113.399 Y125.094 E16.09139
G1 X113.201 Y125.076 E16.11525
G1 X112.039 Y124.852 E16.25726
G1 X110.880 Y124.516 E16.40206
G1 X109.755 Y124.069 E16.54733
G1 X108.675 Y123.517 E16.69288
G1 X107.723 Y122.908 E16.82849
G1 X107.568 Y122.799 E16.85123
G1 X106.698 Y122.114 E16.98411
G1 X105.823 Y121.282 E17.12900
G1 X105.029 Y120.369 E17.27419
G1 X104.323 Y119.383 E17.41971
G1 X103.716 Y118.332 E17.56536
G1 X103.212 Y117.232 E17.71055
G1 X102.814 Y116.088 E17.85590
G1 X102.527 Y114.908 E18.00163
G1 X102.356 Y113.712 E18.14661
G1 X102.296 Y112.502 E18.29199
G1 X102.347 Y111.458 E18.41742
G1 X102.357 Y111.274 E18.43953
G1 X102.520 Y110.133 E18.57784
G1 X102.802 Y108.957 E18.72296
G1 X103.195 Y107.813 E18.86812
G1 X103.694 Y106.709 E19.01350
G1 X104.298 Y105.657 E19.15907
G1 X104.999 Y104.669 E19.30444
G1 X105.790 Y103.752 E19.44976
G10
G0 F9000 X108.549 Y106.371
;TYPE:WALL-INNER
G11
G1 F1200 X109.158 Y105.788 E19.55093
G1 X109.833 Y105.255 E19.65414
G1 X110.540 Y104.799 E19.75509
G1 X111.293 Y104.410 E19.85680
G1 X112.080 Y104.095 E19.95852
G1 X112.902 Y103.853 E20.06135
G1 X113.733 Y103.692 E20.16292
G1 X114.575 Y103.612 E20.26442
G1 X114.597 Y103.611 E20.26706
G1 X115.428 Y103.612 E20.36678
G1 X116.265 Y103.692 E20.46768
G1 X116.276 Y103.693 E20.46901
G1 X117.071 Y103.846 E20.56616
G1 X117.882 Y104.082 E20.66751
G1 X118.679 Y104.398 E20.77040
G1 X119.432 Y104.783 E20.87188
G1 X120.148 Y105.241 E20.97388
G1 X120.811 Y105.761 E21.07499
G1 X121.425 Y106.344 E21.17659
G1 X121.988 Y106.992 E21.27960
G1 X122.482 Y107.682 E21.38143
G1 X122.899 Y108.404 E21.48149
G1 X123.258 Y109.189 E21.58507
G1 X123.537 Y109.990 E21.68685
G1 X123.737 Y110.812 E21.78837
G1 X123.858 Y111.655 E21.89057
G1 X123.900 Y112.500 E21.99209
G1 X123.859 Y113.336 E22.09253
G1 X123.744 Y114.149 E22.19106
G1 X123.544 Y114.985 E22.29422
G1 X123.272 Y115.778 E22.39482
G1 X122.918 Y116.561 E22.49793
G1 X122.496 Y117.296 E22.59964
G1 X122.008 Y117.984 E22.70086
G1 X121.451 Y118.629 E22.80312
G1 X120.842 Y119.212 E22.90429
G1 X120.168 Y119.744 E23.00733
G1 X119.460 Y120.201 E23.10845
G1 X118.707 Y120.590 E23.21016
G1 X117.920 Y120.905 E23.31188
G1 X117.098 Y121.147 E23.41471
G1 X116.267 Y121.308 E23.51628
G1 X115.428 Y121.388 E23.61742
G1 X114.564 Y121.388 E23.72110
G1 X113.735 Y121.309 E23.82103
G1 X112.929 Y121.154 E23.91952
G1 X112.118 Y120.918 E24.02088
G1 X111.321 Y120.602 E24.12376
G1 X110.566 Y120.216 E24.22552
G1 X109.852 Y119.759 E24.32724
G1 X109.189 Y119.239 E24.42836
G1 X108.575 Y118.656 E24.52996
G1 X108.012 Y118.008 E24.63297
G1 X107.518 Y117.317 E24.73490
G1 X107.101 Y116.596 E24.83485
G1 X106.741 Y115.810 E24.93859
G1 X106.462 Y115.009 E25.04037
G1 X106.263 Y114.188 E25.14175
G1 X106.142 Y113.342 E25.24430
G1 X106.100 Y112.499 E25.34558
G1 X106.141 Y111.664 E25.44591
G1 X106.256 Y110.851 E25.54444
G1 X106.458 Y110.009 E25.64834
G1 X106.728 Y109.222 E25.74819
G1 X107.083 Y108.438 E25.85146
G1 X107.506 Y107.702 E25.95333
G1 X107.997 Y107.010 E26.05515
G1 X108.549 Y106.371 E26.15648
G0 F9000 X109.442 Y106.607
G1 F1200 X108.809 Y107.278 E26.26717
G1 X108.258 Y108.014 E26.37750
G1 X108.215 Y108.078 E26.38675
G1 X107.761 Y108.866 E26.49589
G1 X107.398 Y109.710 E26.60614
G1 X107.118 Y110.631 E26.72165
G1 X106.958 Y111.538 E26.83217
G1 X106.903 Y112.439 E26.94049
G1 X106.898 Y112.489 E26.94652
G1 X106.952 Y113.418 E27.05819
G1 X107.118 Y114.367 E27.17380
G1 X107.382 Y115.249 E27.28428
G1 X107.742 Y116.092 E27.39428
G1 X108.220 Y116.932 E27.51025
G1 X108.781 Y117.688 E27.62322
G1 X109.441 Y118.392 E27.73902
G1 X110.146 Y118.983 E27.84942
G1 X110.931 Y119.503 E27.96241
G1 X111.771 Y119.927 E28.07532
G1 X112.655 Y120.252 E28.18835
G1 X113.572 Y120.473 E28.30154
G1 X114.506 Y120.584 E28.41440
G1 X115.470 Y120.587 E28.53009
G1 X116.385 Y120.481 E28.64062
G1 X117.323 Y120.260 E28.75626
G1 X118.187 Y119.945 E28.86662
G1 X119.050 Y119.516 E28.98227
G1 X119.819 Y119.010 E29.09273
G1 X120.541 Y118.407 E29.20561
G1 X121.190 Y117.723 E29.31876
G1 X121.742 Y116.986 E29.42926
G1 X121.785 Y116.922 E29.43851
G1 X122.239 Y116.135 E29.54754
G1 X122.612 Y115.270 E29.66058
G1 X122.876 Y114.388 E29.77106
G1 X123.042 Y113.462 E29.88395
G1 X123.097 Y112.557 E29.99275
G1 X123.102 Y112.511 E29.99830
G1 X123.046 Y111.560 E30.11262
G1 X122.889 Y110.674 E30.22060
G1 X122.612 Y109.730 E30.33865
G1 X122.258 Y108.907 E30.44616
G1 X121.793 Y108.091 E30.55886
G1 X121.764 Y108.043 E30.56559
G1 X121.205 Y107.294 E30.67774
G1 X120.573 Y106.623 E30.78836
G1 X119.838 Y106.003 E30.90375
G1 X119.068 Y105.497 E31.01431
G1 X118.229 Y105.073 E31.12712
G1 X117.345 Y104.748 E31.24014
G1 X116.428 Y104.527 E31.35333
G1 X115.494 Y104.416 E31.46620
G1 X114.530 Y104.413 E31.58188
G1 X113.615 Y104.519 E31.69241
G1 X112.698 Y104.735 E31.80547
G1 X111.814 Y105.054 E31.91824
G1 X110.970 Y105.474 E32.03137
G1 X110.181 Y105.990 E32.14450
G1 X109.442 Y106.607 E32.26002
G0 F9000 X109.717 Y106.899
;TYPE:WALL-OUTER
G1 F1200 X109.116 Y107.536 E32.36512
G1 X108.584 Y108.246 E32.47158
G1 X108.119 Y109.045 E32.58252
G1 X107.774 Y109.847 E32.68728
G1 X107.508 Y110.724 E32.79726
G1 X107.356 Y111.585 E32.90217
G1 X107.302 Y112.467 E33.00821
G1 X107.299 Y112.496 E33.01171
G1 X107.350 Y113.372 E33.11701
G1 X107.508 Y114.275 E33.22702
G1 X107.759 Y115.113 E33.33199
G1 X108.107 Y115.928 E33.43833
G1 X108.555 Y116.713 E33.54679
G1 X109.088 Y117.431 E33.65410
G1 X109.716 Y118.101 E33.76429
G1 X110.386 Y118.662 E33.86916
G1 X111.132 Y119.156 E33.97653
G1 X111.931 Y119.560 E34.08396
G1 X112.771 Y119.869 E34.19137
G1 X113.643 Y120.078 E34.29897
G1 X114.531 Y120.184 E34.40629
G1 X115.447 Y120.187 E34.51621
G1 X116.316 Y120.086 E34.62119
G1 X117.208 Y119.876 E34.73116
G1 X118.029 Y119.577 E34.83601
G1 X118.850 Y119.169 E34.94602
G1 X119.580 Y118.688 E35.05093
G1 X120.267 Y118.115 E35.15828
G1 X120.884 Y117.464 E35.26591
G1 X121.416 Y116.754 E35.37238
G1 X121.881 Y115.955 E35.48331
G1 X122.235 Y115.133 E35.59071
G1 X122.486 Y114.295 E35.69568
G1 X122.644 Y113.415 E35.80297
G1 X122.698 Y112.533 E35.90901
G1 X122.701 Y112.504 E35.91251
G1 X122.648 Y111.607 E36.02034
G1 X122.497 Y110.753 E36.12441
G1 X122.235 Y109.867 E36.23528
G1 X121.893 Y109.072 E36.33913
G1 X121.449 Y108.295 E36.44652
G1 X120.898 Y107.551 E36.55762
G1 X120.298 Y106.914 E36.66263
G1 X119.598 Y106.324 E36.77249
G1 X118.867 Y105.844 E36.87743
G1 X118.069 Y105.440 E36.98476
G1 X117.229 Y105.131 E37.09216
G1 X116.357 Y104.922 E37.19977
G1 X115.469 Y104.816 E37.30708
G1 X114.553 Y104.813 E37.41700
G1 X113.684 Y104.914 E37.52198
G1 X112.812 Y105.119 E37.62948
G1 X111.971 Y105.423 E37.73679
G1 X111.169 Y105.821 E37.84423
G1 X110.420 Y106.312 E37.95170
G1 X109.717 Y106.899 E38.06160
G0 F9000 X109.500 Y106.693
G0 X109.092 Y105.712
G0 X108.891 Y105.489
G1 F1200 X109.598 Y104.931 E38.16968
G1 X110.335 Y104.456 E38.27490
G1 X111.130 Y104.045 E38.38229
G1 X111.953 Y103.715 E38.48870
G1 X112.807 Y103.464 E38.59551
G1 X113.671 Y103.296 E38.70113
G1 X114.556 Y103.212 E38.80781
G1 X114.586 Y103.211 E38.81141
G1 X115.445 Y103.212 E38.91449
G1 X116.302 Y103.293 E39.01779
G1 X116.328 Y103.295 E39.02092
G1 X117.159 Y103.456 E39.12249
G1 X118.014 Y103.704 E39.22932
G1 X118.843 Y104.033 E39.33635
G1 X119.632 Y104.437 E39.44272
G1 X120.378 Y104.914 E39.54898
G1 X120.405 Y104.933 E39.55294
G1 X121.074 Y105.460 E39.65514
G1 X121.720 Y106.074 E39.76208
G1 X122.299 Y106.739 E39.86789
G1 X122.817 Y107.464 E39.97482
G1 X123.259 Y108.228 E40.08073
G1 X123.628 Y109.035 E40.18722
G1 X123.924 Y109.884 E40.29511
G1 X124.130 Y110.732 E40.39983
G1 X124.255 Y111.607 E40.50590
G1 X124.300 Y112.500 E40.61319
G1 X124.258 Y113.359 E40.71640
G1 X124.256 Y113.390 E40.72012
G1 X124.138 Y114.220 E40.82073
G1 X123.927 Y115.100 E40.92932
G1 X123.641 Y115.934 E41.03512
G1 X123.277 Y116.738 E41.14103
G1 X122.836 Y117.507 E41.24741
G1 X122.320 Y118.234 E41.35439
G1 X121.739 Y118.908 E41.46117
G1 X121.109 Y119.511 E41.56582
G1 X120.405 Y120.067 E41.67347
G1 X119.665 Y120.544 E41.77912
G1 X118.870 Y120.955 E41.88651
G1 X118.047 Y121.285 E41.99291
G1 X117.193 Y121.536 E42.09973
G1 X116.329 Y121.704 E42.20535
G1 X115.445 Y121.788 E42.31191
G1 X114.578 Y121.788 E42.41595
G1 X114.552 Y121.789 E42.41907
G1 X113.698 Y121.707 E42.52202
G1 X113.672 Y121.705 E42.52515
G1 X112.841 Y121.544 E42.62673
G1 X111.986 Y121.296 E42.73355
G1 X111.157 Y120.967 E42.84058
G1 X110.368 Y120.563 E42.94695
G1 X109.622 Y120.086 E43.05321
G1 X109.595 Y120.067 E43.05717
G1 X108.926 Y119.540 E43.15937
G1 X108.280 Y118.926 E43.26632
G1 X107.701 Y118.261 E43.37212
G1 X107.183 Y117.536 E43.47905
G1 X106.741 Y116.772 E43.58497
G1 X106.372 Y115.965 E43.69145
G1 X106.076 Y115.116 E43.79934
G1 X105.870 Y114.267 E43.90418
G1 X105.745 Y113.390 E44.01048
G1 X105.700 Y112.500 E44.11742
G1 X105.742 Y111.641 E44.22062
G1 X105.744 Y111.607 E44.22471
G1 X105.862 Y110.780 E44.32496
G1 X106.073 Y109.898 E44.43378
G1 X106.359 Y109.066 E44.53936
G1 X106.723 Y108.262 E44.64526
G1 X107.164 Y107.493 E44.75164
G1 X107.680 Y106.766 E44.85862
G1 X108.261 Y106.092 E44.96540
G1 X108.891 Y105.489 E45.07005
G0 F9000 X109.124 Y106.013
;TYPE:SKIN
G1 F900 X109.346 Y106.518 E45.13228
G1 X108.695 Y106.432 E45.19453
G1 X108.793 Y107.096 E45.25775
G1 X108.166 Y107.035 E45.31974
G1 X108.295 Y107.729 E45.38370
G1 X107.690 Y107.690 E45.44644
G1 X107.855 Y108.420 E45.51111
G1 X107.269 Y108.401 E45.57584
G1 X107.476 Y109.173 E45.64201
G1 X106.908 Y109.170 E45.70949
G1 X107.164 Y109.993 E45.77827
G1 X106.613 Y110.008 E45.84938
G1 X106.929 Y110.889 E45.92126
G1 X106.396 Y110.921 E45.99735
G1 X106.548 Y111.639 E46.07529
G1 X106.517 Y112.174 E46.15953
G1 X106.511 Y112.733 E46.24691
G1 X106.806 Y113.311 E46.32478
G0 F9000 X106.284 Y113.355
G1 F900 X106.908 Y113.979 E46.43068
G0 F9000 X106.379 Y114.016
G1 F900 X107.075 Y114.712 E46.54879
G0 F9000 X106.540 Y114.742
G1 F900 X107.368 Y115.570 E46.68931
G0 F9000 X106.807 Y115.575
G1 F900 X107.924 Y116.692 E46.87887
G0 F9000 X107.263 Y116.596
G1 F900 X110.888 Y120.222 E47.49414
G0 F9000 X110.845 Y119.613
G1 F900 X111.919 Y120.687 E47.67640
G0 F9000 X111.932 Y120.135
G1 F900 X112.752 Y120.954 E47.81548
G0 F9000 X112.792 Y120.428
G1 F900 X113.479 Y121.116 E47.93215
G0 F9000 X113.536 Y120.607
G1 F900 X114.134 Y121.205 E48.03363
G0 F9000 X114.180 Y120.685
G1 F900 X114.763 Y120.985 E48.12884
G1 X115.329 Y120.986 E48.21713
G1 X116.087 Y121.178 E48.29877
G1 X116.125 Y120.650 E48.37833
G1 X117.044 Y121.003 E48.45246
G1 X117.069 Y120.463 E48.52560
G1 X117.917 Y120.745 E48.59531
G1 X117.926 Y120.188 E48.66416
G1 X118.720 Y120.417 E48.73134
G1 X118.709 Y119.841 E48.79754
G1 X119.459 Y120.025 E48.86264
G1 X119.432 Y119.432 E48.92604
G1 X120.142 Y119.576 E48.98993
G1 X119.940 Y119.091 E49.05298
G0 F9000 X122.238 Y116.134
G0 X123.041 Y113.462
G0 X122.872 Y110.601
G0 X122.610 Y108.185
G1 F900 X119.296 Y104.871 E49.61538
G0 F9000 X119.421 Y105.562
G1 F900 X118.231 Y104.371 E49.81742
G0 F9000 X118.209 Y104.915
G1 F900 X117.374 Y104.081 E49.95904
G0 F9000 X117.327 Y104.599
G1 F900 X116.632 Y103.904 E50.07698
G0 F9000 X116.582 Y104.420
G1 F900 X115.966 Y103.803 E50.18161
G0 F9000 X115.923 Y104.326
G1 F900 X115.348 Y103.752 E50.27910
G0 F9000 X115.306 Y104.275
G1 F900 X114.760 Y104.012 E50.36764
G1 X113.991 Y103.809 E50.45044
G1 X113.955 Y104.338 E50.53093
G1 X113.028 Y103.977 E50.60584
G1 X113.004 Y104.518 E50.67976
G1 X112.149 Y104.230 E50.74986
G1 X112.139 Y104.786 E50.81909
G1 X111.341 Y104.553 E50.88643
G1 X111.350 Y105.127 E50.95256
G1 X110.596 Y104.939 E51.01783
G1 X110.623 Y105.531 E51.08184
G1 X109.909 Y105.383 E51.14593
G1 X109.954 Y105.995 E51.20779
G1 X109.429 Y105.752 E51.27721
G0 F9000 X114.531 Y104.414
G0 X117.344 Y104.749
